;FLAVOR:Marlin
;TIME:16911
;Filament used: 10.2017m
;Layer height: 0.2
;MINX:40.2
;MINY:91.7
;MINZ:0.2
;MAXX:194.8
;MAXY:143.3
;MAXZ:28
;Generated with Cura_SteamEngine 4.8.0
M140 S50
M105
M190 S50
M104 S200
M105
M109 S200
M82 ;absolute extrusion mode
; Ender 3 Custom Start G-code
G92 E0 ; Reset Extruder
G28 ; Home all axes
G1 Z2.0 F3000 ; Move Z Axis up little to prevent scratching of Heat Bed
G1 X0.1 Y20 Z0.3 F5000.0 ; Move to start position
G1 X0.1 Y200.0 Z0.3 F1500.0 E15 ; Draw the first line
G1 X0.4 Y200.0 Z0.3 F5000.0 ; Move to side a little
G1 X0.4 Y20 Z0.3 F1500.0 E30 ; Draw the second line
G92 E0 ; Reset Extruder
G1 Z2.0 F3000 ; Move Z Axis up little to prevent scratching of Heat Bed
G1 X5 Y20 Z0.3 F5000.0 ; Move over to prevent blob squish
G92 E0
G92 E0
G1 F2700 E-5
;LAYER_COUNT:140
;LAYER:0
M107
G0 F6000 X44.504 Y92.587 Z0.2
;TYPE:SKIRT
G1 F2700 E0
G1 F1200 X45.222 Y92.257 E0.02628
G1 X45.969 Y92.002 E0.05254
G1 X46.738 Y91.823 E0.0788
G1 X47.522 Y91.723 E0.10508
G1 X48.117 Y91.7 E0.12489
G1 X159.355 Y91.7 E3.82468
G1 X160.144 Y91.74 E3.85095
G1 X160.924 Y91.859 E3.8772
G1 X161.689 Y92.057 E3.90348
G1 X162.44 Y92.336 E3.93013
G1 X162.512 Y92.367 E3.93273
G1 X163.22 Y92.715 E3.95897
G1 X163.89 Y93.134 E3.98526
G1 X164.514 Y93.618 E4.01152
G1 X164.982 Y94.055 E4.03282
G1 X192.525 Y121.996 E5.33775
G1 X193.05 Y122.586 E5.36402
G1 X193.513 Y123.226 E5.39029
G1 X193.909 Y123.909 E5.41655
G1 X194.17 Y124.472 E5.43719
G1 X194.2 Y124.544 E5.43978
G1 X194.466 Y125.287 E5.46603
G1 X194.656 Y126.054 E5.49231
G1 X194.768 Y126.836 E5.51859
G1 X194.8 Y127.544 E5.54216
G1 X194.8 Y131.383 E5.66985
G1 X194.76 Y132.172 E5.69612
G1 X194.641 Y132.952 E5.72237
G1 X194.443 Y133.717 E5.74865
G1 X194.169 Y134.457 E5.77489
G1 X193.821 Y135.166 E5.80116
G1 X193.403 Y135.837 E5.82746
G1 X192.92 Y136.461 E5.8537
G1 X192.515 Y136.898 E5.87352
G1 X192.398 Y137.015 E5.87902
G1 X191.812 Y137.545 E5.9053
G1 X191.176 Y138.012 E5.93154
G1 X190.496 Y138.413 E5.9578
G1 X189.778 Y138.743 E5.98408
G1 X189.031 Y138.998 E6.01034
G1 X188.262 Y139.177 E6.0366
G1 X187.478 Y139.277 E6.06288
G1 X186.883 Y139.3 E6.08269
G1 X145.738 Y139.3 E7.45118
G1 X145.403 Y139.837 E7.47223
G1 X144.92 Y140.461 E7.49847
G1 X144.515 Y140.898 E7.51829
G1 X144.398 Y141.015 E7.52379
G1 X143.812 Y141.545 E7.55007
G1 X143.176 Y142.012 E7.57632
G1 X142.496 Y142.413 E7.60257
G1 X141.778 Y142.743 E7.62886
G1 X141.031 Y142.998 E7.65511
G1 X140.262 Y143.177 E7.68137
G1 X139.478 Y143.277 E7.70766
G1 X138.883 Y143.3 E7.72746
G1 X87.117 Y143.3 E9.44921
G1 X86.328 Y143.26 E9.47548
G1 X85.548 Y143.141 E9.50172
G1 X84.783 Y142.943 E9.52801
G1 X84.043 Y142.669 E9.55425
G1 X83.334 Y142.321 E9.58052
G1 X82.663 Y141.903 E9.60682
G1 X82.039 Y141.42 E9.63306
G1 X81.602 Y141.015 E9.65288
G1 X81.485 Y140.898 E9.65838
G1 X80.955 Y140.312 E9.68466
G1 X80.488 Y139.676 E9.7109
G1 X80.266 Y139.3 E9.72543
G1 X48.117 Y139.3 E10.79471
G1 X47.328 Y139.26 E10.82098
G1 X46.548 Y139.141 E10.84723
G1 X45.783 Y138.943 E10.87351
G1 X45.043 Y138.669 E10.89975
G1 X44.334 Y138.321 E10.92602
G1 X43.663 Y137.903 E10.95232
G1 X43.039 Y137.42 E10.97856
G1 X42.602 Y137.015 E10.99838
G1 X42.485 Y136.898 E11.00388
G1 X41.955 Y136.312 E11.03016
G1 X41.488 Y135.676 E11.05641
G1 X41.087 Y134.996 E11.08266
G1 X40.757 Y134.278 E11.10894
G1 X40.502 Y133.531 E11.1352
G1 X40.323 Y132.762 E11.16146
G1 X40.223 Y131.978 E11.18775
G1 X40.2 Y131.383 E11.20755
G1 X40.2 Y99.617 E12.26409
G1 X40.24 Y98.828 E12.29037
G1 X40.359 Y98.048 E12.31661
G1 X40.557 Y97.283 E12.34289
G1 X40.831 Y96.543 E12.36914
G1 X41.179 Y95.834 E12.39541
G1 X41.597 Y95.163 E12.4217
G1 X42.08 Y94.539 E12.44795
G1 X42.485 Y94.102 E12.46776
G1 X42.602 Y93.985 E12.47327
G1 X43.188 Y93.455 E12.49955
G1 X43.824 Y92.988 E12.52579
G1 X44.504 Y92.587 E12.55205
G0 F6000 X44.743 Y92.914
G1 F1200 X45.445 Y92.599 E12.57764
G1 X46.176 Y92.359 E12.60323
G1 X46.927 Y92.196 E12.62879
G1 X47.692 Y92.112 E12.65438
G1 X48.117 Y92.1 E12.66853
G1 X159.355 Y92.1 E16.36832
G1 X160.123 Y92.14 E16.3939
G1 X160.883 Y92.259 E16.41948
G1 X161.626 Y92.457 E16.44506
G1 X162.281 Y92.703 E16.46833
G1 X162.353 Y92.734 E16.47093
G1 X163.043 Y93.075 E16.49653
G1 X163.694 Y93.485 E16.52212
G1 X164.298 Y93.96 E16.54768
G1 X164.697 Y94.336 E16.56591
G1 X192.24 Y122.277 E17.87085
G1 X192.751 Y122.852 E17.89643
G1 X193.199 Y123.477 E17.92201
G1 X193.58 Y124.145 E17.94759
G1 X193.801 Y124.626 E17.96519
G1 X193.831 Y124.698 E17.96779
G1 X194.089 Y125.422 E17.99335
G1 X194.271 Y126.17 E18.01895
G1 X194.375 Y126.932 E18.04453
G1 X194.4 Y127.544 E18.0649
G1 X194.4 Y131.383 E18.19259
G1 X194.36 Y132.151 E18.21817
G1 X194.241 Y132.911 E18.24375
G1 X194.043 Y133.654 E18.26933
G1 X193.769 Y134.373 E18.29492
G1 X193.422 Y135.059 E18.32049
G1 X193.006 Y135.706 E18.34607
G1 X192.525 Y136.306 E18.37165
G1 X192.233 Y136.616 E18.38582
G1 X192.116 Y136.733 E18.39132
G1 X191.544 Y137.247 E18.4169
G1 X190.922 Y137.7 E18.44249
G1 X190.257 Y138.086 E18.46806
G1 X189.555 Y138.401 E18.49365
G1 X188.824 Y138.641 E18.51924
G1 X188.073 Y138.804 E18.5448
G1 X187.308 Y138.888 E18.5704
G1 X186.883 Y138.9 E18.58454
G1 X145.502 Y138.9 E19.96088
G1 X145.422 Y139.059 E19.9668
G1 X145.006 Y139.706 E19.99238
G1 X144.525 Y140.306 E20.01796
G1 X144.233 Y140.616 E20.03213
G1 X144.116 Y140.733 E20.03763
G1 X143.544 Y141.247 E20.06321
G1 X142.922 Y141.7 E20.0888
G1 X142.257 Y142.086 E20.11437
G1 X141.555 Y142.401 E20.13996
G1 X140.824 Y142.641 E20.16555
G1 X140.073 Y142.804 E20.19111
G1 X139.308 Y142.888 E20.21671
G1 X138.883 Y142.9 E20.23085
G1 X87.117 Y142.9 E21.9526
G1 X86.349 Y142.86 E21.97818
G1 X85.589 Y142.741 E22.00376
G1 X84.846 Y142.543 E22.02934
G1 X84.127 Y142.269 E22.05493
G1 X83.441 Y141.922 E22.0805
G1 X82.794 Y141.506 E22.10608
G1 X82.194 Y141.025 E22.13166
G1 X81.884 Y140.733 E22.14582
G1 X81.767 Y140.616 E22.15133
G1 X81.253 Y140.044 E22.1769
G1 X80.8 Y139.422 E22.2025
G1 X80.497 Y138.9 E22.22257
G1 X48.117 Y138.9 E23.29953
G1 X47.349 Y138.86 E23.32511
G1 X46.589 Y138.741 E23.3507
G1 X45.846 Y138.543 E23.37627
G1 X45.127 Y138.269 E23.40186
G1 X44.441 Y137.922 E23.42743
G1 X43.794 Y137.506 E23.45302
G1 X43.194 Y137.025 E23.47859
G1 X42.884 Y136.733 E23.49276
G1 X42.767 Y136.616 E23.49826
G1 X42.253 Y136.044 E23.52384
G1 X41.8 Y135.422 E23.54943
G1 X41.414 Y134.757 E23.57501
G1 X41.099 Y134.055 E23.6006
G1 X40.859 Y133.324 E23.62619
G1 X40.696 Y132.573 E23.65175
G1 X40.612 Y131.808 E23.67734
G1 X40.6 Y131.383 E23.69149
G1 X40.6 Y99.617 E24.74803
G1 X40.64 Y98.849 E24.77361
G1 X40.759 Y98.089 E24.79919
G1 X40.957 Y97.346 E24.82477
G1 X41.231 Y96.627 E24.85036
G1 X41.578 Y95.941 E24.87593
G1 X41.994 Y95.294 E24.90151
G1 X42.475 Y94.694 E24.92709
G1 X42.767 Y94.384 E24.94125
G1 X42.884 Y94.267 E24.94676
G1 X43.456 Y93.753 E24.97233
G1 X44.078 Y93.3 E24.99793
G1 X44.743 Y92.914 E25.0235
G0 F6000 X44.98 Y93.242
G1 F1200 X45.666 Y92.943 E25.04839
G1 X46.38 Y92.719 E25.07328
G1 X47.113 Y92.572 E25.09814
G1 X48.117 Y92.5 E25.13162
G1 X159.355 Y92.5 E28.83141
G1 X160.102 Y92.54 E28.85629
G1 X160.84 Y92.659 E28.88116
G1 X161.562 Y92.857 E28.90606
G1 X162.123 Y93.071 E28.92603
G1 X162.195 Y93.102 E28.92863
G1 X162.866 Y93.434 E28.95353
G1 X163.497 Y93.835 E28.9784
G1 X164.081 Y94.302 E29.00327
G1 X164.412 Y94.617 E29.01847
G1 X191.955 Y122.558 E30.3234
G1 X192.451 Y123.118 E30.34828
G1 X192.884 Y123.728 E30.37316
G1 X193.25 Y124.38 E30.39803
G1 X193.432 Y124.78 E30.41265
G1 X193.462 Y124.852 E30.41524
G1 X193.712 Y125.557 E30.44012
G1 X193.886 Y126.284 E30.46498
G1 X193.981 Y127.026 E30.48987
G1 X194 Y127.544 E30.50711
G1 X194 Y131.383 E30.63479
G1 X193.96 Y132.13 E30.65967
G1 X193.841 Y132.868 E30.68454
G1 X193.643 Y133.59 E30.70944
G1 X193.37 Y134.286 E30.7343
G1 X193.023 Y134.949 E30.75919
G1 X192.608 Y135.572 E30.78409
G1 X191.95 Y136.333 E30.81755
G1 X191.833 Y136.45 E30.82305
G1 X191.276 Y136.95 E30.84795
G1 X190.67 Y137.387 E30.8728
G1 X190.02 Y137.758 E30.89769
G1 X189.334 Y138.057 E30.92258
G1 X188.62 Y138.281 E30.94747
G1 X187.887 Y138.428 E30.97233
G1 X186.883 Y138.5 E31.00581
G1 X145.258 Y138.5 E32.39027
G1 X145.023 Y138.949 E32.40712
G1 X144.608 Y139.572 E32.43202
G1 X143.95 Y140.333 E32.46548
G1 X143.833 Y140.45 E32.47098
G1 X143.276 Y140.95 E32.49588
G1 X142.67 Y141.387 E32.52073
G1 X142.02 Y141.758 E32.54562
G1 X141.334 Y142.057 E32.57051
G1 X140.62 Y142.281 E32.5954
G1 X139.887 Y142.428 E32.62026
G1 X138.883 Y142.5 E32.65374
G1 X87.117 Y142.5 E34.37549
G1 X86.37 Y142.46 E34.40037
G1 X85.632 Y142.341 E34.42523
G1 X84.91 Y142.143 E34.45013
G1 X84.214 Y141.87 E34.475
G1 X83.551 Y141.523 E34.49989
G1 X82.928 Y141.108 E34.52478
G1 X82.167 Y140.45 E34.55824
G1 X82.05 Y140.333 E34.56375
G1 X81.55 Y139.776 E34.58864
G1 X81.113 Y139.17 E34.61349
G1 X80.742 Y138.52 E34.63839
G1 X80.733 Y138.5 E34.63911
G1 X48.117 Y138.5 E35.72393
G1 X47.37 Y138.46 E35.74881
G1 X46.632 Y138.341 E35.77367
G1 X45.91 Y138.143 E35.79857
G1 X45.214 Y137.87 E35.82344
G1 X44.551 Y137.523 E35.84833
G1 X43.928 Y137.108 E35.87322
G1 X43.167 Y136.45 E35.90668
G1 X43.05 Y136.333 E35.91219
G1 X42.55 Y135.776 E35.93708
G1 X42.113 Y135.17 E35.96193
G1 X41.742 Y134.52 E35.98683
G1 X41.443 Y133.834 E36.01172
G1 X41.219 Y133.12 E36.0366
G1 X41.072 Y132.387 E36.06147
G1 X41 Y131.383 E36.09495
G1 X41 Y99.617 E37.15149
G1 X41.04 Y98.87 E37.17637
G1 X41.159 Y98.132 E37.20123
G1 X41.357 Y97.41 E37.22613
G1 X41.63 Y96.714 E37.251
G1 X41.977 Y96.051 E37.27589
G1 X42.392 Y95.428 E37.30079
G1 X43.05 Y94.667 E37.33425
G1 X43.167 Y94.55 E37.33975
G1 X43.724 Y94.05 E37.36465
G1 X44.33 Y93.613 E37.3895
G1 X44.98 Y93.242 E37.41439
G0 F6000 X45.216 Y93.572
G1 F1200 X45.885 Y93.289 E37.43855
G1 X46.581 Y93.081 E37.46271
G1 X47.296 Y92.951 E37.48688
G1 X48.117 Y92.9 E37.51424
G1 X159.355 Y92.9 E41.21403
G1 X160.08 Y92.94 E41.23818
G1 X160.797 Y93.059 E41.26235
G1 X161.496 Y93.257 E41.28652
G1 X161.965 Y93.438 E41.30324
G1 X162.037 Y93.469 E41.30585
G1 X162.687 Y93.793 E41.33
G1 X163.298 Y94.186 E41.35416
G1 X163.862 Y94.643 E41.37831
G1 X164.127 Y94.898 E41.39054
G1 X191.67 Y122.839 E42.69547
G1 X192.151 Y123.383 E42.71962
G1 X192.569 Y123.977 E42.74378
G1 X193.062 Y124.934 E42.77959
G1 X193.092 Y125.006 E42.78218
G1 X193.334 Y125.69 E42.80631
G1 X193.5 Y126.398 E42.8305
G1 X193.586 Y127.119 E42.85465
G1 X193.6 Y127.544 E42.86879
G1 X193.6 Y131.383 E42.99648
G1 X193.56 Y132.108 E43.02063
G1 X193.441 Y132.825 E43.0448
G1 X193.243 Y133.524 E43.06897
G1 X192.97 Y134.197 E43.09312
G1 X192.625 Y134.836 E43.11728
G1 X192.211 Y135.433 E43.14144
G1 X191.667 Y136.05 E43.1688
G1 X191.55 Y136.167 E43.1743
G1 X191.009 Y136.651 E43.19844
G1 X190.418 Y137.074 E43.22262
G1 X189.784 Y137.428 E43.24677
G1 X189.115 Y137.711 E43.27093
G1 X188.419 Y137.919 E43.29509
G1 X187.704 Y138.049 E43.31926
G1 X186.883 Y138.1 E43.34662
G1 X145.009 Y138.1 E44.73935
G1 X144.97 Y138.197 E44.74283
G1 X144.625 Y138.836 E44.76698
G1 X144.211 Y139.433 E44.79115
G1 X143.667 Y140.05 E44.81851
G1 X143.55 Y140.167 E44.82401
G1 X143.009 Y140.651 E44.84815
G1 X142.418 Y141.074 E44.87233
G1 X141.784 Y141.428 E44.89648
G1 X141.115 Y141.711 E44.92064
G1 X140.419 Y141.919 E44.9448
G1 X139.704 Y142.049 E44.96897
G1 X138.883 Y142.1 E44.99633
G1 X87.117 Y142.1 E46.71807
G1 X86.392 Y142.06 E46.74222
G1 X85.675 Y141.941 E46.7664
G1 X84.976 Y141.743 E46.79056
G1 X84.303 Y141.47 E46.81472
G1 X83.664 Y141.125 E46.83887
G1 X83.067 Y140.711 E46.86303
G1 X82.45 Y140.167 E46.89039
G1 X82.333 Y140.05 E46.8959
G1 X81.849 Y139.509 E46.92004
G1 X81.426 Y138.918 E46.94421
G1 X81.072 Y138.284 E46.96836
G1 X80.994 Y138.1 E46.97501
G1 X48.117 Y138.1 E48.0685
G1 X47.392 Y138.06 E48.09265
G1 X46.675 Y137.941 E48.11683
G1 X45.976 Y137.743 E48.14099
G1 X45.303 Y137.47 E48.16515
G1 X44.664 Y137.125 E48.1893
G1 X44.067 Y136.711 E48.21346
G1 X43.45 Y136.167 E48.24082
G1 X43.333 Y136.05 E48.24633
G1 X42.849 Y135.509 E48.27047
G1 X42.426 Y134.918 E48.29464
G1 X42.072 Y134.284 E48.31879
G1 X41.789 Y133.615 E48.34295
G1 X41.581 Y132.919 E48.36711
G1 X41.451 Y132.204 E48.39129
G1 X41.4 Y131.383 E48.41864
G1 X41.4 Y99.617 E49.47519
G1 X41.44 Y98.892 E49.49934
G1 X41.559 Y98.175 E49.52351
G1 X41.757 Y97.476 E49.54767
G1 X42.03 Y96.803 E49.57183
G1 X42.375 Y96.164 E49.59598
G1 X42.789 Y95.567 E49.62015
G1 X43.333 Y94.95 E49.6475
G1 X43.45 Y94.833 E49.65301
G1 X43.991 Y94.349 E49.67715
G1 X44.582 Y93.926 E49.70132
G1 X45.216 Y93.572 E49.72548
G0 F6000 X45.451 Y93.903
G1 F1200 X46.102 Y93.636 E49.74888
G1 X46.78 Y93.446 E49.7723
G1 X47.475 Y93.333 E49.79572
G1 X48.117 Y93.3 E49.8171
G1 X159.355 Y93.3 E53.51689
G1 X160.058 Y93.34 E53.54031
G1 X160.752 Y93.459 E53.56373
G1 X161.427 Y93.657 E53.58712
G1 X161.807 Y93.805 E53.60069
G1 X161.879 Y93.836 E53.6033
G1 X162.509 Y94.151 E53.62672
G1 X163.099 Y94.535 E53.65014
G1 X163.842 Y95.178 E53.68282
G1 X191.385 Y123.119 E54.98775
G1 X191.85 Y123.648 E55.01118
G1 X192.252 Y124.226 E55.03459
G1 X192.693 Y125.087 E55.06677
G1 X192.723 Y125.159 E55.06936
G1 X192.957 Y125.824 E55.09281
G1 X193.113 Y126.51 E55.11621
G1 X193.2 Y127.544 E55.15072
G1 X193.2 Y131.383 E55.27841
G1 X193.16 Y132.086 E55.30183
G1 X193.041 Y132.78 E55.32524
G1 X192.843 Y133.455 E55.34864
G1 X192.571 Y134.104 E55.37205
G1 X192.226 Y134.718 E55.39547
G1 X191.815 Y135.289 E55.41887
G1 X191.384 Y135.767 E55.44028
G1 X191.267 Y135.884 E55.44578
G1 X190.742 Y136.353 E55.4692
G1 X190.167 Y136.759 E55.49261
G1 X189.549 Y137.097 E55.51604
G1 X188.898 Y137.364 E55.53944
G1 X188.22 Y137.554 E55.56286
G1 X187.525 Y137.667 E55.58628
G1 X186.883 Y137.7 E55.60766
G1 X144.74 Y137.7 E57.00934
G1 X144.571 Y138.104 E57.0239
G1 X144.226 Y138.718 E57.04733
G1 X143.815 Y139.289 E57.07073
G1 X143.384 Y139.767 E57.09214
G1 X143.267 Y139.884 E57.09764
G1 X142.742 Y140.353 E57.12105
G1 X142.167 Y140.759 E57.14447
G1 X141.549 Y141.097 E57.16789
G1 X140.898 Y141.364 E57.1913
G1 X140.22 Y141.554 E57.21472
G1 X139.525 Y141.667 E57.23813
G1 X138.883 Y141.7 E57.25952
G1 X87.117 Y141.7 E58.98126
G1 X86.414 Y141.66 E59.00468
G1 X85.72 Y141.541 E59.0281
G1 X85.045 Y141.343 E59.0515
G1 X84.396 Y141.071 E59.0749
G1 X83.782 Y140.726 E59.09833
G1 X83.211 Y140.315 E59.12172
G1 X82.733 Y139.884 E59.14313
G1 X82.616 Y139.767 E59.14863
G1 X82.147 Y139.242 E59.17205
G1 X81.741 Y138.667 E59.19546
G1 X81.403 Y138.049 E59.21889
G1 X81.26 Y137.7 E59.23143
G1 X48.117 Y137.7 E60.33377
G1 X47.414 Y137.66 E60.35719
G1 X46.72 Y137.541 E60.38061
G1 X46.045 Y137.343 E60.40401
G1 X45.396 Y137.071 E60.42741
G1 X44.782 Y136.726 E60.45084
G1 X44.211 Y136.315 E60.47424
G1 X43.733 Y135.884 E60.49565
G1 X43.616 Y135.767 E60.50115
G1 X43.147 Y135.242 E60.52456
G1 X42.741 Y134.667 E60.54798
G1 X42.403 Y134.049 E60.5714
G1 X42.136 Y133.398 E60.59481
G1 X41.946 Y132.72 E60.61823
G1 X41.833 Y132.025 E60.64164
G1 X41.8 Y131.383 E60.66303
G1 X41.8 Y99.617 E61.71957
G1 X41.84 Y98.914 E61.74299
G1 X41.959 Y98.22 E61.76641
G1 X42.157 Y97.545 E61.7898
G1 X42.429 Y96.896 E61.81321
G1 X42.774 Y96.282 E61.83663
G1 X43.185 Y95.711 E61.86003
G1 X43.616 Y95.233 E61.88144
G1 X43.733 Y95.116 E61.88694
G1 X44.258 Y94.647 E61.91036
G1 X44.833 Y94.241 E61.93377
G1 X45.451 Y93.903 E61.9572
G0 F6000 X45.683 Y94.235
G1 F1200 X46.317 Y93.986 E61.97985
G1 X46.976 Y93.813 E62.00251
G1 X47.65 Y93.719 E62.02515
G1 X48.117 Y93.7 E62.04069
G1 X159.355 Y93.7 E65.74048
G1 X160.035 Y93.74 E65.76314
G1 X160.705 Y93.859 E65.78577
G1 X161.649 Y94.173 E65.81886
G1 X161.721 Y94.204 E65.82147
G1 X162.329 Y94.509 E65.84409
G1 X162.898 Y94.884 E65.86676
G1 X163.558 Y95.459 E65.89587
G1 X191.101 Y123.4 E67.2008
G1 X191.549 Y123.912 E67.22343
G1 X191.935 Y124.474 E67.24611
G1 X192.324 Y125.241 E67.27471
G1 X192.354 Y125.313 E67.27731
G1 X192.578 Y125.956 E67.29995
G1 X192.726 Y126.621 E67.32261
G1 X192.8 Y127.544 E67.35341
G1 X192.8 Y131.383 E67.4811
G1 X192.76 Y132.063 E67.50375
G1 X192.641 Y132.733 E67.52638
G1 X192.444 Y133.385 E67.54904
G1 X192.172 Y134.009 E67.57168
G1 X191.828 Y134.597 E67.59434
G1 X191.418 Y135.141 E67.61699
G1 X191.101 Y135.484 E67.63253
G1 X190.984 Y135.601 E67.63803
G1 X190.475 Y136.054 E67.66069
