;FLAVOR:Marlin
;TIME:8930
;Filament used: 5.99974m
;Layer height: 0.2
;MINX:83.7
;MINY:70.7
;MINZ:0.2
;MAXX:151.3
;MAXY:164.3
;MAXZ:45
;Generated with Cura_SteamEngine 4.8.0
M140 S50
M105
M190 S50
M104 S200
M105
M109 S200
M82 ;absolute extrusion mode
; Ender 3 Custom Start G-code
G92 E0 ; Reset Extruder
G28 ; Home all axes
G1 Z2.0 F3000 ; Move Z Axis up little to prevent scratching of Heat Bed
G1 X0.1 Y20 Z0.3 F5000.0 ; Move to start position
G1 X0.1 Y200.0 Z0.3 F1500.0 E15 ; Draw the first line
G1 X0.4 Y200.0 Z0.3 F5000.0 ; Move to side a little
G1 X0.4 Y20 Z0.3 F1500.0 E30 ; Draw the second line
G92 E0 ; Reset Extruder
G1 Z2.0 F3000 ; Move Z Axis up little to prevent scratching of Heat Bed
G1 X5 Y20 Z0.3 F5000.0 ; Move over to prevent blob squish
G92 E0
G92 E0
G1 F2700 E-5
;LAYER_COUNT:225
;LAYER:0
M107
G0 F6000 X92.232 Y73.708 Z0.2
;TYPE:SKIRT
G1 F2700 E0
G1 F1200 X92.646 Y73.262 E0.02024
G1 X92.934 Y72.975 E0.03376
G1 X93.521 Y72.447 E0.06002
G1 X94.158 Y71.98 E0.08629
G1 X94.839 Y71.581 E0.11254
G1 X95.558 Y71.252 E0.13884
G1 X96.305 Y70.998 E0.16509
G1 X97.075 Y70.82 E0.19137
G1 X97.858 Y70.722 E0.21762
G1 X98.44 Y70.7 E0.23699
G1 X99.06 Y70.7 E0.25761
G1 X99.849 Y70.74 E0.28389
G1 X100.629 Y70.859 E0.31013
G1 X101.394 Y71.057 E0.33641
G1 X102.134 Y71.331 E0.36266
G1 X102.843 Y71.679 E0.38893
G1 X103.514 Y72.097 E0.41522
G1 X104.138 Y72.58 E0.44146
G1 X104.566 Y72.975 E0.46084
G1 X104.854 Y73.262 E0.47436
G1 X105.384 Y73.847 E0.50061
G1 X105.853 Y74.483 E0.5269
G1 X106.255 Y75.162 E0.55314
G1 X106.586 Y75.879 E0.57941
G1 X106.843 Y76.626 E0.60568
G1 X107.023 Y77.395 E0.63195
G1 X107.124 Y78.178 E0.65821
G1 X107.145 Y78.7 E0.67559
G1 X128.356 Y78.7 E1.38107
G1 X128.392 Y77.997 E1.40448
G1 X128.512 Y77.217 E1.43073
G1 X128.71 Y76.452 E1.45701
G1 X128.984 Y75.712 E1.48325
G1 X129.332 Y75.003 E1.50952
G1 X129.749 Y74.332 E1.5358
G1 X130.232 Y73.708 E1.56204
G1 X130.646 Y73.262 E1.58228
G1 X130.934 Y72.975 E1.59581
G1 X131.521 Y72.447 E1.62207
G1 X132.158 Y71.98 E1.64834
G1 X132.839 Y71.581 E1.67459
G1 X133.558 Y71.252 E1.70089
G1 X134.305 Y70.998 E1.72713
G1 X135.075 Y70.82 E1.75342
G1 X135.858 Y70.722 E1.77966
G1 X136.44 Y70.7 E1.79903
G1 X137.231 Y70.7 E1.82534
G1 X138.02 Y70.74 E1.85162
G1 X138.8 Y70.859 E1.87786
G1 X139.565 Y71.057 E1.90414
G1 X140.305 Y71.331 E1.93039
G1 X141.014 Y71.679 E1.95666
G1 X141.685 Y72.097 E1.98295
G1 X142.309 Y72.58 E2.0092
G1 X142.746 Y72.985 E2.02901
G1 X142.863 Y73.102 E2.03452
G1 X143.393 Y73.688 E2.0608
G1 X143.86 Y74.324 E2.08704
G1 X144.261 Y75.004 E2.1133
G1 X144.591 Y75.722 E2.13958
G1 X144.846 Y76.469 E2.16583
G1 X145.025 Y77.238 E2.19209
G1 X145.125 Y78.022 E2.21838
G1 X145.148 Y78.617 E2.23818
G1 X145.148 Y78.91 E2.24793
G1 X145.717 Y79.057 E2.26748
G1 X146.457 Y79.331 E2.29372
G1 X147.166 Y79.679 E2.31999
G1 X147.837 Y80.097 E2.34628
G1 X148.461 Y80.58 E2.37253
G1 X148.898 Y80.985 E2.39235
G1 X149.015 Y81.102 E2.39785
G1 X149.545 Y81.688 E2.42413
G1 X150.012 Y82.324 E2.45037
G1 X150.413 Y83.004 E2.47663
G1 X150.743 Y83.722 E2.50291
G1 X150.998 Y84.469 E2.52917
G1 X151.177 Y85.238 E2.55543
G1 X151.277 Y86.022 E2.58171
G1 X151.3 Y86.617 E2.60152
G1 X151.3 Y156.383 E4.92194
G1 X151.26 Y157.172 E4.94822
G1 X151.141 Y157.952 E4.97446
G1 X150.943 Y158.717 E5.00075
G1 X150.669 Y159.457 E5.02699
G1 X150.321 Y160.166 E5.05326
G1 X149.903 Y160.837 E5.07955
G1 X149.42 Y161.461 E5.1058
G1 X149.015 Y161.898 E5.12562
G1 X148.898 Y162.015 E5.13112
G1 X148.312 Y162.545 E5.1574
G1 X147.676 Y163.012 E5.18364
G1 X146.996 Y163.413 E5.2099
G1 X146.278 Y163.743 E5.23618
G1 X145.531 Y163.998 E5.26243
G1 X144.762 Y164.177 E5.2887
G1 X143.978 Y164.277 E5.31498
G1 X143.383 Y164.3 E5.33479
G1 X91.617 Y164.3 E7.05653
G1 X90.828 Y164.26 E7.08281
G1 X90.048 Y164.141 E7.10905
G1 X89.283 Y163.943 E7.13533
G1 X88.543 Y163.669 E7.16158
G1 X87.834 Y163.321 E7.18785
G1 X87.163 Y162.903 E7.21414
G1 X86.539 Y162.42 E7.24039
G1 X86.102 Y162.015 E7.2602
G1 X85.985 Y161.898 E7.26571
G1 X85.455 Y161.312 E7.29199
G1 X84.988 Y160.676 E7.31823
G1 X84.587 Y159.996 E7.34449
G1 X84.257 Y159.278 E7.37077
G1 X84.002 Y158.531 E7.39702
G1 X83.823 Y157.762 E7.42328
G1 X83.723 Y156.978 E7.44957
G1 X83.7 Y156.383 E7.46937
G1 X83.7 Y86.617 E9.7898
G1 X83.74 Y85.828 E9.81608
G1 X83.859 Y85.048 E9.84232
G1 X84.057 Y84.283 E9.8686
G1 X84.331 Y83.543 E9.89485
G1 X84.679 Y82.834 E9.92112
G1 X85.097 Y82.163 E9.94741
G1 X85.58 Y81.539 E9.97366
G1 X85.985 Y81.102 E9.99347
G1 X86.102 Y80.985 E9.99898
G1 X86.688 Y80.455 E10.02526
G1 X87.324 Y79.988 E10.0515
G1 X88.004 Y79.587 E10.07776
G1 X88.722 Y79.257 E10.10404
G1 X89.469 Y79.002 E10.13029
G1 X90.238 Y78.823 E10.15655
G1 X90.352 Y78.786 E10.16054
G1 X90.392 Y77.997 E10.18681
G1 X90.512 Y77.217 E10.21306
G1 X90.71 Y76.452 E10.23934
G1 X90.984 Y75.712 E10.26559
G1 X91.332 Y75.003 E10.29186
G1 X91.749 Y74.332 E10.31814
G1 X92.232 Y73.708 E10.34438
G0 F6000 X92.628 Y73.863
G1 F1200 X92.929 Y73.545 E10.35894
G1 X93.217 Y73.258 E10.37247
G1 X93.789 Y72.744 E10.39804
G1 X94.411 Y72.293 E10.4236
G1 X95.077 Y71.908 E10.44918
G1 X95.78 Y71.595 E10.47478
G1 X96.511 Y71.356 E10.50036
G1 X97.263 Y71.194 E10.52594
G1 X98.028 Y71.111 E10.55154
G1 X98.44 Y71.1 E10.56525
G1 X99.06 Y71.1 E10.58587
G1 X99.828 Y71.14 E10.61145
G1 X100.588 Y71.259 E10.63703
G1 X101.331 Y71.457 E10.66261
G1 X102.05 Y71.731 E10.6882
G1 X102.736 Y72.078 E10.71377
G1 X103.383 Y72.494 E10.73935
G1 X103.983 Y72.975 E10.76493
G1 X104.283 Y73.258 E10.77864
G1 X104.571 Y73.545 E10.79217
G1 X105.087 Y74.116 E10.81776
G1 X105.541 Y74.737 E10.84335
G1 X105.928 Y75.402 E10.86894
G1 X106.244 Y76.103 E10.89452
G1 X106.485 Y76.833 E10.92008
G1 X106.65 Y77.585 E10.94569
G1 X106.735 Y78.349 E10.97126
G1 X106.748 Y78.786 E10.9858
G1 X106.748 Y79.1 E10.99624
G1 X128.752 Y79.1 E11.7281
G1 X128.752 Y78.786 E11.73854
G1 X128.792 Y78.018 E11.76412
G1 X128.912 Y77.258 E11.78971
G1 X129.109 Y76.515 E11.81528
G1 X129.383 Y75.796 E11.84087
G1 X129.73 Y75.11 E11.86644
G1 X130.147 Y74.463 E11.89204
G1 X130.628 Y73.863 E11.91762
G1 X130.929 Y73.545 E11.93218
G1 X131.217 Y73.258 E11.9457
G1 X131.789 Y72.744 E11.97128
G1 X132.411 Y72.293 E11.99684
G1 X133.077 Y71.908 E12.02242
G1 X133.78 Y71.595 E12.04802
G1 X134.511 Y71.356 E12.0736
G1 X135.263 Y71.194 E12.09918
G1 X136.028 Y71.111 E12.12478
G1 X136.44 Y71.1 E12.13848
G1 X137.231 Y71.1 E12.16479
G1 X137.999 Y71.14 E12.19037
G1 X138.759 Y71.259 E12.21596
G1 X139.502 Y71.457 E12.24153
G1 X140.221 Y71.731 E12.26712
G1 X140.907 Y72.078 E12.29269
G1 X141.554 Y72.494 E12.31828
G1 X142.154 Y72.975 E12.34385
G1 X142.464 Y73.267 E12.35802
G1 X142.581 Y73.384 E12.36352
G1 X143.095 Y73.956 E12.3891
G1 X143.548 Y74.578 E12.41469
G1 X143.934 Y75.243 E12.44026
G1 X144.249 Y75.945 E12.46586
G1 X144.489 Y76.676 E12.49145
G1 X144.652 Y77.427 E12.51701
G1 X144.736 Y78.192 E12.5426
G1 X144.748 Y78.617 E12.55674
G1 X144.748 Y79.233 E12.57723
G1 X144.911 Y79.259 E12.58272
G1 X145.654 Y79.457 E12.6083
G1 X146.373 Y79.731 E12.63389
G1 X147.059 Y80.078 E12.65946
G1 X147.706 Y80.494 E12.68504
G1 X148.306 Y80.975 E12.71062
G1 X148.616 Y81.267 E12.72478
G1 X148.733 Y81.384 E12.73029
G1 X149.247 Y81.956 E12.75586
G1 X149.7 Y82.578 E12.78146
G1 X150.086 Y83.243 E12.80703
G1 X150.401 Y83.945 E12.83262
G1 X150.641 Y84.676 E12.85821
G1 X150.804 Y85.427 E12.88377
G1 X150.888 Y86.192 E12.90937
G1 X150.9 Y86.617 E12.92351
G1 X150.9 Y156.383 E15.24394
G1 X150.86 Y157.151 E15.26952
G1 X150.741 Y157.911 E15.2951
G1 X150.543 Y158.654 E15.32068
G1 X150.269 Y159.373 E15.34627
G1 X149.922 Y160.059 E15.37184
G1 X149.506 Y160.706 E15.39742
G1 X149.025 Y161.306 E15.423
G1 X148.733 Y161.616 E15.43716
G1 X148.616 Y161.733 E15.44267
G1 X148.044 Y162.247 E15.46824
G1 X147.422 Y162.7 E15.49384
G1 X146.757 Y163.086 E15.51941
G1 X146.055 Y163.401 E15.545
G1 X145.324 Y163.641 E15.57059
G1 X144.573 Y163.804 E15.59615
G1 X143.808 Y163.888 E15.62175
G1 X143.383 Y163.9 E15.63589
G1 X91.617 Y163.9 E17.35763
G1 X90.849 Y163.86 E17.38321
G1 X90.089 Y163.741 E17.4088
G1 X89.346 Y163.543 E17.43437
G1 X88.627 Y163.269 E17.45996
G1 X87.941 Y162.922 E17.48553
G1 X87.294 Y162.506 E17.51112
G1 X86.694 Y162.025 E17.53669
G1 X86.384 Y161.733 E17.55086
G1 X86.267 Y161.616 E17.55636
G1 X85.753 Y161.044 E17.58194
G1 X85.3 Y160.422 E17.60753
G1 X84.914 Y159.757 E17.63311
G1 X84.599 Y159.055 E17.6587
G1 X84.359 Y158.324 E17.68429
G1 X84.196 Y157.573 E17.70985
G1 X84.112 Y156.808 E17.73544
G1 X84.1 Y156.383 E17.74959
G1 X84.1 Y86.617 E20.07001
G1 X84.14 Y85.849 E20.09559
G1 X84.259 Y85.089 E20.12118
G1 X84.457 Y84.346 E20.14675
G1 X84.731 Y83.627 E20.17234
G1 X85.078 Y82.941 E20.19791
G1 X85.494 Y82.294 E20.2235
G1 X85.975 Y81.694 E20.24907
G1 X86.267 Y81.384 E20.26324
G1 X86.384 Y81.267 E20.26874
G1 X86.956 Y80.753 E20.29432
G1 X87.578 Y80.3 E20.31991
G1 X88.243 Y79.914 E20.34548
G1 X88.945 Y79.599 E20.37108
G1 X89.676 Y79.359 E20.39667
G1 X90.427 Y79.196 E20.42223
G1 X90.752 Y79.16 E20.4331
G1 X90.752 Y78.786 E20.44554
G1 X90.792 Y78.018 E20.47112
G1 X90.912 Y77.258 E20.49671
G1 X91.109 Y76.515 E20.52228
G1 X91.383 Y75.796 E20.54787
G1 X91.73 Y75.11 E20.57344
G1 X92.147 Y74.463 E20.59904
G1 X92.628 Y73.863 E20.62462
G0 F6000 X92.544 Y74.597
G1 F1200 X93.211 Y73.829 E20.65845
G1 X93.499 Y73.542 E20.67197
G1 X94.056 Y73.043 E20.69684
G1 X94.664 Y72.606 E20.72175
G1 X95.314 Y72.237 E20.74661
G1 X96 Y71.939 E20.77148
G1 X96.714 Y71.716 E20.79636
G1 X97.448 Y71.571 E20.82125
G1 X98.44 Y71.5 E20.85433
G1 X99.06 Y71.5 E20.87495
G1 X99.807 Y71.54 E20.89983
G1 X100.545 Y71.659 E20.92469
G1 X101.267 Y71.857 E20.94959
G1 X101.963 Y72.13 E20.97446
G1 X102.626 Y72.477 E20.99935
G1 X103.249 Y72.892 E21.02425
G1 X104.001 Y73.542 E21.05731
G1 X104.289 Y73.829 E21.07083
G1 X104.79 Y74.384 E21.0957
G1 X105.229 Y74.99 E21.12059
G1 X105.6 Y75.639 E21.14545
G1 X105.901 Y76.325 E21.17037
G1 X106.126 Y77.038 E21.19523
G1 X106.274 Y77.771 E21.2201
G1 X106.348 Y78.786 E21.25395
G1 X106.348 Y79.5 E21.2777
G1 X129.152 Y79.5 E22.03616
G1 X129.152 Y78.786 E22.05991
G1 X129.192 Y78.039 E22.08479
G1 X129.312 Y77.301 E22.10966
G1 X129.509 Y76.579 E22.13455
G1 X129.783 Y75.883 E22.15943
G1 X130.129 Y75.22 E22.18431
G1 X130.544 Y74.597 E22.2092
G1 X131.211 Y73.829 E22.24304
G1 X131.499 Y73.542 E22.25656
G1 X132.056 Y73.043 E22.28143
G1 X132.664 Y72.606 E22.30633
G1 X133.314 Y72.237 E22.33119
G1 X134 Y71.939 E22.35607
G1 X134.714 Y71.716 E22.38095
G1 X135.448 Y71.571 E22.40583
G1 X136.44 Y71.5 E22.43891
G1 X137.231 Y71.5 E22.46522
G1 X137.978 Y71.54 E22.4901
G1 X138.716 Y71.659 E22.51497
G1 X139.438 Y71.857 E22.53987
G1 X140.134 Y72.13 E22.56473
G1 X140.797 Y72.477 E22.58962
G1 X141.42 Y72.892 E22.61452
G1 X142.181 Y73.55 E22.64798
G1 X142.298 Y73.667 E22.65348
G1 X142.798 Y74.224 E22.67838
G1 X143.235 Y74.83 E22.70323
G1 X143.606 Y75.48 E22.72812
G1 X143.905 Y76.166 E22.75301
G1 X144.129 Y76.88 E22.7779
G1 X144.276 Y77.613 E22.80276
G1 X144.348 Y78.617 E22.83624
G1 X144.348 Y79.575 E22.86811
G1 X144.868 Y79.659 E22.88563
G1 X145.59 Y79.857 E22.91053
G1 X146.286 Y80.13 E22.93539
G1 X146.949 Y80.477 E22.96028
G1 X147.572 Y80.892 E22.98518
G1 X148.333 Y81.55 E23.01864
G1 X148.45 Y81.667 E23.02414
G1 X148.95 Y82.224 E23.04904
G1 X149.387 Y82.83 E23.07389
G1 X149.758 Y83.48 E23.09878
G1 X150.057 Y84.166 E23.12367
G1 X150.281 Y84.88 E23.14856
G1 X150.428 Y85.613 E23.17342
G1 X150.5 Y86.617 E23.2069
G1 X150.5 Y156.383 E25.52733
G1 X150.46 Y157.13 E25.55221
G1 X150.341 Y157.868 E25.57707
G1 X150.143 Y158.59 E25.60197
G1 X149.87 Y159.286 E25.62684
G1 X149.523 Y159.949 E25.65173
G1 X149.108 Y160.572 E25.67663
G1 X148.45 Y161.333 E25.71009
G1 X148.333 Y161.45 E25.71559
G1 X147.776 Y161.95 E25.74049
G1 X147.17 Y162.387 E25.76534
G1 X146.52 Y162.758 E25.79023
G1 X145.834 Y163.057 E25.81512
G1 X145.12 Y163.281 E25.84001
G1 X144.387 Y163.428 E25.86487
G1 X143.383 Y163.5 E25.89835
G1 X91.617 Y163.5 E27.62009
G1 X90.87 Y163.46 E27.64498
G1 X90.132 Y163.341 E27.66984
G1 X89.41 Y163.143 E27.69474
G1 X88.714 Y162.87 E27.71961
G1 X88.051 Y162.523 E27.74449
G1 X87.428 Y162.108 E27.76939
G1 X86.667 Y161.45 E27.80285
G1 X86.55 Y161.333 E27.80836
G1 X86.05 Y160.776 E27.83325
G1 X85.613 Y160.17 E27.8581
G1 X85.242 Y159.52 E27.88299
G1 X84.943 Y158.834 E27.90788
G1 X84.719 Y158.12 E27.93277
G1 X84.572 Y157.387 E27.95764
G1 X84.5 Y156.383 E27.99112
G1 X84.5 Y86.617 E30.31154
G1 X84.54 Y85.87 E30.33642
G1 X84.659 Y85.132 E30.36129
G1 X84.857 Y84.41 E30.38619
G1 X85.13 Y83.714 E30.41105
G1 X85.477 Y83.051 E30.43594
G1 X85.892 Y82.428 E30.46084
G1 X86.55 Y81.667 E30.4943
G1 X86.667 Y81.55 E30.4998
G1 X87.224 Y81.05 E30.5247
G1 X87.83 Y80.613 E30.54955
G1 X88.48 Y80.242 E30.57444
G1 X89.166 Y79.943 E30.59933
G1 X89.88 Y79.719 E30.62422
G1 X90.613 Y79.572 E30.64908
G1 X91.152 Y79.533 E30.66706
G1 X91.152 Y78.786 E30.6919
G1 X91.192 Y78.039 E30.71678
G1 X91.312 Y77.301 E30.74165
G1 X91.509 Y76.579 E30.76654
G1 X91.783 Y75.883 E30.79142
G1 X92.129 Y75.22 E30.8163
G1 X92.544 Y74.597 E30.84119
G0 F6000 X92.941 Y74.736
G1 F1200 X93.493 Y74.112 E30.8689
G1 X93.781 Y73.825 E30.88243
G1 X94.323 Y73.341 E30.9066
G1 X94.915 Y72.92 E30.93076
G1 X95.549 Y72.567 E30.95489
G1 X96.219 Y72.285 E30.97907
G1 X96.915 Y72.079 E31.00321
G1 X97.63 Y71.95 E31.02738
G1 X98.44 Y71.9 E31.05437
G1 X99.06 Y71.9 E31.07499
G1 X99.785 Y71.94 E31.09914
G1 X100.502 Y72.059 E31.12331
G1 X101.201 Y72.257 E31.14748
G1 X101.874 Y72.53 E31.17163
G1 X102.513 Y72.875 E31.19579
G1 X103.11 Y73.289 E31.21995
G1 X103.719 Y73.825 E31.24693
G1 X104.007 Y74.112 E31.26046
G1 X104.492 Y74.652 E31.2846
G1 X104.916 Y75.243 E31.30879
G1 X105.271 Y75.876 E31.33293
G1 X105.555 Y76.544 E31.35707
G1 X105.764 Y77.24 E31.38124
G1 X105.895 Y77.954 E31.40538
G1 X105.948 Y78.786 E31.43311
G1 X105.948 Y79.9 E31.47016
G1 X129.552 Y79.9 E32.25524
G1 X129.552 Y78.786 E32.29229
G1 X129.592 Y78.061 E32.31644
G1 X129.712 Y77.344 E32.34062
G1 X129.909 Y76.645 E32.36477
G1 X130.182 Y75.972 E32.38893
G1 X130.528 Y75.333 E32.4131
G1 X130.941 Y74.736 E32.43724
G1 X131.493 Y74.112 E32.46495
G1 X131.781 Y73.825 E32.47847
G1 X132.323 Y73.341 E32.50264
G1 X132.915 Y72.92 E32.5268
G1 X133.549 Y72.567 E32.55094
G1 X134.219 Y72.285 E32.57512
G1 X134.915 Y72.079 E32.59926
G1 X135.63 Y71.95 E32.62342
G1 X136.44 Y71.9 E32.65042
G1 X137.231 Y71.9 E32.67672
G1 X137.956 Y71.94 E32.70087
G1 X138.673 Y72.059 E32.72505
G1 X139.372 Y72.257 E32.74921
G1 X140.045 Y72.53 E32.77337
G1 X140.684 Y72.875 E32.79752
G1 X141.281 Y73.289 E32.82168
G1 X141.898 Y73.833 E32.84904
G1 X142.015 Y73.95 E32.85455
G1 X142.499 Y74.491 E32.87869
G1 X142.922 Y75.082 E32.90286
G1 X143.276 Y75.716 E32.92701
G1 X143.559 Y76.385 E32.95117
G1 X143.767 Y77.081 E32.97533
G1 X143.897 Y77.796 E32.99951
G1 X143.948 Y78.617 E33.02686
G1 X143.948 Y79.931 E33.07057
G1 X144.108 Y79.94 E33.0759
G1 X144.825 Y80.059 E33.10007
G1 X145.524 Y80.257 E33.12424
G1 X146.197 Y80.53 E33.14839
G1 X146.836 Y80.875 E33.17254
G1 X147.433 Y81.289 E33.19671
G1 X148.05 Y81.833 E33.22407
G1 X148.167 Y81.95 E33.22957
G1 X148.651 Y82.491 E33.25371
G1 X149.074 Y83.082 E33.27789
G1 X149.428 Y83.716 E33.30204
G1 X149.711 Y84.385 E33.3262
G1 X149.919 Y85.081 E33.35036
G1 X150.049 Y85.796 E33.37453
G1 X150.1 Y86.617 E33.40189
G1 X150.1 Y156.383 E35.72232
G1 X150.06 Y157.108 E35.74647
G1 X149.941 Y157.825 E35.77064
G1 X149.743 Y158.524 E35.7948
G1 X149.47 Y159.197 E35.81896
G1 X149.125 Y159.836 E35.84311
G1 X148.711 Y160.433 E35.86728
G1 X148.167 Y161.05 E35.89463
G1 X148.05 Y161.167 E35.90014
G1 X147.509 Y161.651 E35.92428
G1 X146.918 Y162.074 E35.94845
G1 X146.284 Y162.428 E35.97261
G1 X145.615 Y162.711 E35.99677
G1 X144.919 Y162.919 E36.02093
G1 X144.204 Y163.049 E36.0451
G1 X143.383 Y163.1 E36.07246
G1 X91.617 Y163.1 E37.7942
G1 X90.892 Y163.06 E37.81835
G1 X90.175 Y162.941 E37.84252
G1 X89.476 Y162.743 E37.86669
G1 X88.803 Y162.47 E37.89084
G1 X88.164 Y162.125 E37.915
G1 X87.567 Y161.711 E37.93916
G1 X86.95 Y161.167 E37.96652
G1 X86.833 Y161.05 E37.97202
G1 X86.349 Y160.509 E37.99617
G1 X85.926 Y159.918 E38.02034
G1 X85.572 Y159.284 E38.04449
