;FLAVOR:Marlin
;TIME:5972
;Filament used: 3.09269m
;Layer height: 0.2
;MINX:94.7
;MINY:101.702
;MINZ:0.2
;MAXX:140.3
;MAXY:133.298
;MAXZ:91.6
;Generated with Cura_SteamEngine 4.8.0
M140 S50
M105
M190 S50
M104 S200
M105
M109 S200
M82 ;absolute extrusion mode
; Ender 3 Custom Start G-code
G92 E0 ; Reset Extruder
G28 ; Home all axes
G1 Z2.0 F3000 ; Move Z Axis up little to prevent scratching of Heat Bed
G1 X0.1 Y20 Z0.3 F5000.0 ; Move to start position
G1 X0.1 Y200.0 Z0.3 F1500.0 E15 ; Draw the first line
G1 X0.4 Y200.0 Z0.3 F5000.0 ; Move to side a little
G1 X0.4 Y20 Z0.3 F1500.0 E30 ; Draw the second line
G92 E0 ; Reset Extruder
G1 Z2.0 F3000 ; Move Z Axis up little to prevent scratching of Heat Bed
G1 X5 Y20 Z0.3 F5000.0 ; Move over to prevent blob squish
G92 E0
G92 E0
G1 F2700 E-5
;LAYER_COUNT:459
;LAYER:0
M107
G0 F6000 X97.102 Y103.987 Z0.2
;TYPE:SKIRT
G1 F2700 E0
G1 F1200 X97.688 Y103.457 E0.02628
G1 X98.324 Y102.99 E0.05252
G1 X99.004 Y102.589 E0.07878
G1 X99.722 Y102.259 E0.10506
G1 X100.469 Y102.004 E0.13132
G1 X101.238 Y101.825 E0.15758
G1 X102.022 Y101.725 E0.18386
G1 X102.617 Y101.702 E0.20367
G1 X132.383 Y101.702 E1.19369
G1 X133.172 Y101.742 E1.21996
G1 X133.952 Y101.861 E1.24621
G1 X134.717 Y102.059 E1.27249
G1 X135.457 Y102.333 E1.29874
G1 X136.166 Y102.681 E1.325
G1 X136.837 Y103.099 E1.3513
G1 X137.461 Y103.582 E1.37754
G1 X137.898 Y103.987 E1.39736
G1 X138.015 Y104.104 E1.40286
G1 X138.545 Y104.69 E1.42914
G1 X139.012 Y105.326 E1.45539
G1 X139.413 Y106.006 E1.48164
G1 X139.743 Y106.724 E1.50793
G1 X139.998 Y107.471 E1.53418
G1 X140.177 Y108.24 E1.56044
G1 X140.277 Y109.024 E1.58673
G1 X140.3 Y109.619 E1.60653
G1 X140.3 Y125.381 E2.13078
G1 X140.26 Y126.17 E2.15705
G1 X140.141 Y126.95 E2.1833
G1 X139.943 Y127.715 E2.20958
G1 X139.669 Y128.455 E2.23582
G1 X139.321 Y129.164 E2.26209
G1 X138.903 Y129.835 E2.28839
G1 X138.42 Y130.459 E2.31463
G1 X138.015 Y130.896 E2.33445
G1 X137.898 Y131.013 E2.33995
G1 X137.312 Y131.543 E2.36623
G1 X136.676 Y132.01 E2.39248
G1 X135.996 Y132.411 E2.41873
G1 X135.278 Y132.741 E2.44502
G1 X134.531 Y132.996 E2.47127
G1 X133.762 Y133.175 E2.49753
G1 X132.978 Y133.275 E2.52382
G1 X132.383 Y133.298 E2.54362
G1 X130.62 Y133.298 E2.60226
G1 X130.21 Y133.277 E2.61591
G1 X130.105 Y133.288 E2.61942
G1 X129.315 Y133.288 E2.6457
G1 X128.529 Y133.209 E2.67197
G1 X127.756 Y133.051 E2.69822
G1 X127.002 Y132.815 E2.72449
G1 X126.276 Y132.505 E2.75075
G1 X125.764 Y132.231 E2.77006
G1 X125.564 Y132.114 E2.77777
G1 X124.904 Y131.681 E2.80402
G1 X124.29 Y131.184 E2.8303
G1 X123.73 Y130.627 E2.85657
G1 X123.23 Y130.016 E2.88283
G1 X122.793 Y129.358 E2.9091
G1 X122.425 Y128.659 E2.93537
G1 X122.13 Y127.927 E2.96162
G1 X121.911 Y127.168 E2.9879
G1 X121.769 Y126.391 E3.01417
G1 X121.703 Y125.381 E3.04783
G1 X121.703 Y125.3 E3.05053
G1 X113.297 Y125.3 E3.33011
G1 X113.297 Y125.381 E3.33281
G1 X113.257 Y126.17 E3.35908
G1 X113.138 Y126.95 E3.38532
G1 X112.94 Y127.715 E3.41161
G1 X112.666 Y128.455 E3.43785
G1 X112.318 Y129.164 E3.46412
G1 X111.9 Y129.835 E3.49041
G1 X111.417 Y130.459 E3.51666
G1 X110.874 Y131.032 E3.54292
G1 X110.275 Y131.547 E3.56919
G1 X109.45 Y132.105 E3.60232
G1 X109.251 Y132.222 E3.60999
G1 X108.551 Y132.587 E3.63625
G1 X107.818 Y132.88 E3.66251
G1 X107.058 Y133.097 E3.6888
G1 X106.281 Y133.236 E3.71505
G1 X105.494 Y133.296 E3.7413
G1 X104.865 Y133.279 E3.76223
G1 X104.381 Y133.298 E3.77834
G1 X102.617 Y133.298 E3.83701
G1 X101.828 Y133.258 E3.86329
G1 X101.048 Y133.139 E3.88953
G1 X100.283 Y132.941 E3.91581
G1 X99.543 Y132.667 E3.94206
G1 X98.834 Y132.319 E3.96833
G1 X98.163 Y131.901 E3.99462
G1 X97.539 Y131.418 E4.02086
G1 X97.102 Y131.013 E4.04068
G1 X96.985 Y130.896 E4.04618
G1 X96.455 Y130.31 E4.07246
G1 X95.988 Y129.674 E4.09871
G1 X95.587 Y128.994 E4.12496
G1 X95.257 Y128.276 E4.15125
G1 X95.002 Y127.529 E4.1775
G1 X94.823 Y126.76 E4.20376
G1 X94.723 Y125.976 E4.23005
G1 X94.7 Y125.381 E4.24985
G1 X94.7 Y109.619 E4.7741
G1 X94.74 Y108.83 E4.80037
G1 X94.859 Y108.05 E4.82662
G1 X95.057 Y107.285 E4.8529
G1 X95.331 Y106.545 E4.87915
G1 X95.679 Y105.836 E4.90541
G1 X96.097 Y105.165 E4.93171
G1 X96.58 Y104.541 E4.95795
G1 X96.985 Y104.104 E4.97777
G1 X97.102 Y103.987 E4.98327
G0 F6000 X97.384 Y104.269
G1 F1200 X97.956 Y103.755 E5.00885
G1 X98.578 Y103.302 E5.03444
G1 X99.243 Y102.916 E5.06002
G1 X99.945 Y102.601 E5.08561
G1 X100.676 Y102.361 E5.1112
G1 X101.427 Y102.198 E5.13676
G1 X102.192 Y102.114 E5.16236
G1 X102.617 Y102.102 E5.1765
G1 X132.383 Y102.102 E6.16652
G1 X133.151 Y102.142 E6.1921
G1 X133.911 Y102.261 E6.21768
G1 X134.654 Y102.459 E6.24326
G1 X135.373 Y102.733 E6.26885
G1 X136.059 Y103.08 E6.29442
G1 X136.706 Y103.496 E6.32
G1 X137.306 Y103.977 E6.34558
G1 X137.616 Y104.269 E6.35974
G1 X137.733 Y104.386 E6.36525
G1 X138.247 Y104.958 E6.39082
G1 X138.7 Y105.58 E6.41642
G1 X139.086 Y106.245 E6.44199
G1 X139.401 Y106.947 E6.46758
G1 X139.641 Y107.678 E6.49317
G1 X139.804 Y108.429 E6.51873
G1 X139.888 Y109.194 E6.54433
G1 X139.9 Y109.619 E6.55847
G1 X139.9 Y125.381 E7.08272
G1 X139.86 Y126.149 E7.1083
G1 X139.741 Y126.909 E7.13388
G1 X139.543 Y127.652 E7.15946
G1 X139.269 Y128.371 E7.18505
G1 X138.922 Y129.057 E7.21062
G1 X138.506 Y129.704 E7.2362
G1 X138.025 Y130.304 E7.26178
G1 X137.733 Y130.614 E7.27594
G1 X137.616 Y130.731 E7.28145
G1 X137.044 Y131.245 E7.30702
G1 X136.422 Y131.698 E7.33262
G1 X135.757 Y132.084 E7.35819
G1 X135.055 Y132.399 E7.38378
G1 X134.324 Y132.639 E7.40937
G1 X133.573 Y132.802 E7.43493
G1 X132.808 Y132.886 E7.46053
G1 X132.383 Y132.898 E7.47467
G1 X130.62 Y132.898 E7.53331
G1 X130.16 Y132.874 E7.54863
G1 X129.784 Y132.898 E7.56116
G1 X129.016 Y132.866 E7.58672
G1 X128.255 Y132.755 E7.6123
G1 X127.509 Y132.565 E7.63791
G1 X126.788 Y132.299 E7.66347
G1 X125.966 Y131.885 E7.69408
G1 X125.766 Y131.768 E7.70179
G1 X125.124 Y131.346 E7.72734
G1 X124.528 Y130.859 E7.75294
G1 X123.986 Y130.313 E7.77853
G1 X123.504 Y129.714 E7.8041
G1 X123.087 Y129.068 E7.82967
G1 X122.739 Y128.382 E7.85526
G1 X122.464 Y127.664 E7.88083
G1 X122.265 Y126.921 E7.90641
G1 X122.144 Y126.161 E7.93201
G1 X122.103 Y125.381 E7.95799
G1 X122.103 Y124.9 E7.97399
G1 X112.897 Y124.9 E8.28018
G1 X112.897 Y125.381 E8.29618
G1 X112.857 Y126.149 E8.32175
G1 X112.738 Y126.909 E8.34734
G1 X112.54 Y127.652 E8.37292
G1 X112.266 Y128.371 E8.39851
G1 X111.919 Y129.057 E8.42408
G1 X111.503 Y129.704 E8.44966
G1 X111.022 Y130.304 E8.47524
G1 X110.481 Y130.851 E8.50083
G1 X109.886 Y131.339 E8.52642
G1 X109.248 Y131.76 E8.55184
G1 X109.049 Y131.877 E8.55952
G1 X108.366 Y132.232 E8.58512
G1 X107.651 Y132.514 E8.61069
G1 X106.91 Y132.72 E8.63627
G1 X106.151 Y132.849 E8.66187
G1 X105.384 Y132.898 E8.68744
G1 X104.886 Y132.877 E8.70401
G1 X104.806 Y132.886 E8.70669
G1 X104.381 Y132.898 E8.72083
G1 X102.617 Y132.898 E8.7795
G1 X101.849 Y132.858 E8.80508
G1 X101.089 Y132.739 E8.83067
G1 X100.346 Y132.541 E8.85624
G1 X99.627 Y132.267 E8.88183
G1 X98.941 Y131.92 E8.9074
G1 X98.294 Y131.504 E8.93299
G1 X97.694 Y131.023 E8.95856
G1 X97.384 Y130.731 E8.97273
G1 X97.267 Y130.614 E8.97823
G1 X96.753 Y130.042 E9.00381
G1 X96.3 Y129.42 E9.0294
G1 X95.914 Y128.755 E9.05498
G1 X95.599 Y128.053 E9.08057
G1 X95.359 Y127.322 E9.10616
G1 X95.196 Y126.571 E9.13172
G1 X95.112 Y125.806 E9.15732
G1 X95.1 Y125.381 E9.17146
G1 X95.1 Y109.619 E9.6957
G1 X95.14 Y108.851 E9.72128
G1 X95.259 Y108.091 E9.74687
G1 X95.457 Y107.348 E9.77244
G1 X95.731 Y106.629 E9.79803
G1 X96.078 Y105.943 E9.8236
G1 X96.494 Y105.296 E9.84919
G1 X96.975 Y104.696 E9.87476
G1 X97.267 Y104.386 E9.88893
G1 X97.384 Y104.269 E9.89443
G0 F6000 X97.667 Y104.552
G1 F1200 X98.224 Y104.052 E9.91933
G1 X98.83 Y103.615 E9.94418
G1 X99.48 Y103.244 E9.96907
G1 X100.166 Y102.945 E9.99396
G1 X100.88 Y102.721 E10.01885
G1 X101.613 Y102.574 E10.04371
G1 X102.617 Y102.502 E10.07719
G1 X132.383 Y102.502 E11.06721
G1 X133.13 Y102.542 E11.09209
G1 X133.868 Y102.661 E11.11696
G1 X134.59 Y102.859 E11.14186
G1 X135.286 Y103.132 E11.16672
G1 X135.949 Y103.479 E11.19161
G1 X136.572 Y103.894 E11.21651
G1 X137.333 Y104.552 E11.24997
G1 X137.45 Y104.669 E11.25547
G1 X137.95 Y105.226 E11.28037
G1 X138.387 Y105.832 E11.30522
G1 X138.758 Y106.482 E11.33011
G1 X139.057 Y107.168 E11.355
G1 X139.281 Y107.882 E11.37989
G1 X139.428 Y108.615 E11.40475
G1 X139.5 Y109.619 E11.43823
G1 X139.5 Y125.381 E11.96248
G1 X139.46 Y126.128 E11.98736
G1 X139.341 Y126.866 E12.01222
G1 X139.143 Y127.588 E12.03712
G1 X138.87 Y128.284 E12.06199
G1 X138.523 Y128.947 E12.08688
G1 X138.108 Y129.57 E12.11178
G1 X137.45 Y130.331 E12.14524
G1 X137.333 Y130.448 E12.15074
G1 X136.776 Y130.948 E12.17564
G1 X136.17 Y131.385 E12.20049
G1 X135.52 Y131.756 E12.22538
G1 X134.834 Y132.055 E12.25027
G1 X134.12 Y132.279 E12.27516
G1 X133.387 Y132.426 E12.30002
G1 X132.383 Y132.498 E12.3335
G1 X130.62 Y132.498 E12.39214
G1 X130.233 Y132.477 E12.40503
G1 X130.22 Y132.479 E12.40547
G1 X129.472 Y132.494 E12.43035
G1 X128.727 Y132.43 E12.45522
G1 X127.993 Y132.286 E12.4801
G1 X127.278 Y132.065 E12.50499
G1 X126.591 Y131.768 E12.52988
G1 X126.168 Y131.54 E12.54587
G1 X125.968 Y131.423 E12.55357
G1 X125.344 Y131.011 E12.57844
G1 X124.767 Y130.535 E12.60332
G1 X124.244 Y130.001 E12.62818
G1 X123.781 Y129.413 E12.65307
G1 X123.383 Y128.779 E12.67797
G1 X123.056 Y128.107 E12.70283
G1 X122.801 Y127.403 E12.72773
G1 X122.624 Y126.676 E12.75262
G1 X122.525 Y125.935 E12.77748
G1 X122.503 Y125.381 E12.79592
G1 X122.503 Y124.5 E12.82523
G1 X112.497 Y124.5 E13.15803
G1 X112.497 Y125.381 E13.18733
G1 X112.457 Y126.128 E13.21221
G1 X112.338 Y126.866 E13.23707
G1 X112.14 Y127.588 E13.26197
G1 X111.867 Y128.284 E13.28684
G1 X111.52 Y128.947 E13.31173
G1 X111.105 Y129.57 E13.33663
G1 X110.626 Y130.144 E13.36149
G1 X110.089 Y130.665 E13.38638
G1 X109.499 Y131.124 E13.41124
G1 X109.045 Y131.415 E13.42917
G1 X108.846 Y131.532 E13.43685
G1 X108.182 Y131.876 E13.46173
G1 X107.484 Y132.148 E13.48664
G1 X106.762 Y132.343 E13.51152
G1 X106.024 Y132.46 E13.53637
G1 X105.276 Y132.498 E13.56128
G1 X104.775 Y132.47 E13.57797
G1 X104.381 Y132.498 E13.59111
G1 X102.617 Y132.498 E13.64978
G1 X101.87 Y132.458 E13.67466
G1 X101.132 Y132.339 E13.69952
G1 X100.41 Y132.141 E13.72442
G1 X99.714 Y131.868 E13.74929
G1 X99.051 Y131.521 E13.77418
G1 X98.428 Y131.106 E13.79907
G1 X97.667 Y130.448 E13.83253
G1 X97.55 Y130.331 E13.83804
G1 X97.05 Y129.774 E13.86293
G1 X96.613 Y129.168 E13.88778
G1 X96.242 Y128.518 E13.91268
G1 X95.943 Y127.832 E13.93756
G1 X95.719 Y127.118 E13.96245
G1 X95.572 Y126.385 E13.98732
G1 X95.5 Y125.381 E14.0208
G1 X95.5 Y109.619 E14.54504
G1 X95.54 Y108.872 E14.56992
G1 X95.659 Y108.134 E14.59479
G1 X95.857 Y107.412 E14.61969
G1 X96.13 Y106.716 E14.64455
G1 X96.477 Y106.053 E14.66944
G1 X96.892 Y105.43 E14.69434
G1 X97.55 Y104.669 E14.7278
G1 X97.667 Y104.552 E14.7333
G0 F6000 X97.95 Y104.835
G1 F1200 X98.491 Y104.351 E14.75745
G1 X99.082 Y103.928 E14.78162
G1 X99.716 Y103.574 E14.80577
G1 X100.385 Y103.291 E14.82993
G1 X101.081 Y103.083 E14.85409
G1 X101.796 Y102.953 E14.87826
G1 X102.617 Y102.902 E14.90562
G1 X132.383 Y102.902 E15.89564
G1 X133.108 Y102.942 E15.91979
G1 X133.825 Y103.061 E15.94397
G1 X134.524 Y103.259 E15.96813
G1 X135.197 Y103.532 E15.99229
G1 X135.836 Y103.877 E16.01644
G1 X136.433 Y104.291 E16.0406
G1 X137.05 Y104.835 E16.06796
G1 X137.167 Y104.952 E16.07347
G1 X137.651 Y105.493 E16.09761
G1 X138.074 Y106.084 E16.12178
G1 X138.428 Y106.718 E16.14593
G1 X138.711 Y107.387 E16.17009
G1 X138.919 Y108.083 E16.19426
G1 X139.049 Y108.798 E16.21843
G1 X139.1 Y109.619 E16.24579
G1 X139.1 Y125.381 E16.77003
G1 X139.06 Y126.106 E16.79418
G1 X138.941 Y126.823 E16.81836
G1 X138.743 Y127.522 E16.84252
G1 X138.47 Y128.195 E16.86667
G1 X138.125 Y128.834 E16.89083
G1 X137.711 Y129.431 E16.91499
G1 X137.167 Y130.048 E16.94235
G1 X137.05 Y130.165 E16.94785
G1 X136.509 Y130.649 E16.972
G1 X135.918 Y131.072 E16.99617
G1 X135.284 Y131.426 E17.02032
G1 X134.615 Y131.709 E17.04448
G1 X133.919 Y131.917 E17.06864
G1 X133.204 Y132.047 E17.09281
G1 X132.383 Y132.098 E17.12017
G1 X130.62 Y132.098 E17.17881
G1 X130.161 Y132.073 E17.1941
G1 X129.896 Y132.095 E17.20294
G1 X129.17 Y132.076 E17.2271
G1 X128.45 Y131.978 E17.25127
G1 X127.746 Y131.801 E17.27541
G1 X127.065 Y131.548 E17.29957
G1 X126.37 Y131.195 E17.3255
G1 X126.17 Y131.078 E17.33321
G1 X125.565 Y130.677 E17.35735
G1 X125.006 Y130.212 E17.38153
G1 X124.503 Y129.689 E17.40567
G1 X124.06 Y129.113 E17.42983
G1 X123.682 Y128.493 E17.45399
G1 X123.376 Y127.834 E17.47815
G1 X123.143 Y127.146 E17.50231
G1 X122.988 Y126.436 E17.52648
G1 X122.903 Y125.381 E17.56169
G1 X122.903 Y124.1 E17.60429
G1 X112.097 Y124.1 E17.9637
G1 X112.097 Y125.381 E18.00631
G1 X112.057 Y126.106 E18.03046
G1 X111.938 Y126.823 E18.05463
G1 X111.74 Y127.522 E18.07879
G1 X111.467 Y128.195 E18.10295
G1 X111.122 Y128.834 E18.1271
G1 X110.708 Y129.431 E18.15127
G1 X110.232 Y129.979 E18.17541
G1 X109.698 Y130.472 E18.19958
G1 X108.842 Y131.071 E18.23433
G1 X108.643 Y131.188 E18.24201
G1 X107.998 Y131.521 E18.26615
G1 X107.319 Y131.781 E18.29034
G1 X106.617 Y131.965 E18.31447
G1 X105.898 Y132.071 E18.33864
G1 X105.172 Y132.097 E18.36281
G1 X104.82 Y132.071 E18.37455
G1 X104.381 Y132.098 E18.38918
G1 X102.617 Y132.098 E18.44785
G1 X101.892 Y132.058 E18.472
G1 X101.175 Y131.939 E18.49617
G1 X100.476 Y131.741 E18.52033
G1 X99.803 Y131.468 E18.54449
G1 X99.164 Y131.123 E18.56864
G1 X98.567 Y130.709 E18.59281
G1 X97.95 Y130.165 E18.62016
G1 X97.833 Y130.048 E18.62567
G1 X97.349 Y129.507 E18.64981
G1 X96.926 Y128.916 E18.67398
G1 X96.572 Y128.282 E18.69814
G1 X96.289 Y127.613 E18.7223
G1 X96.081 Y126.917 E18.74646
G1 X95.951 Y126.202 E18.77063
G1 X95.9 Y125.381 E18.79799
G1 X95.9 Y109.619 E19.32223
G1 X95.94 Y108.894 E19.34638
G1 X96.059 Y108.177 E19.37056
G1 X96.257 Y107.478 E19.39472
G1 X96.53 Y106.805 E19.41888
G1 X96.875 Y106.166 E19.44303
G1 X97.289 Y105.569 E19.46719
G1 X97.833 Y104.952 E19.49455
G1 X97.95 Y104.835 E19.50006
G0 F6000 X98.233 Y105.118
G1 F1200 X98.758 Y104.649 E19.52347
G1 X99.333 Y104.243 E19.54688
G1 X99.951 Y103.905 E19.57031
G1 X100.602 Y103.638 E19.59371
G1 X101.28 Y103.448 E19.61713
G1 X101.975 Y103.335 E19.64055
G1 X102.617 Y103.302 E19.66193
G1 X132.383 Y103.302 E20.65195
G1 X133.086 Y103.342 E20.67537
G1 X133.78 Y103.461 E20.69879
G1 X134.455 Y103.659 E20.72219
G1 X135.104 Y103.931 E20.74559
G1 X135.718 Y104.276 E20.76902
G1 X136.289 Y104.687 E20.79242
G1 X136.767 Y105.118 E20.81382
G1 X136.884 Y105.235 E20.81933
G1 X137.353 Y105.76 E20.84274
G1 X137.759 Y106.335 E20.86615
G1 X138.097 Y106.953 E20.88958
G1 X138.364 Y107.604 E20.91298
G1 X138.554 Y108.282 E20.9364
G1 X138.667 Y108.977 E20.95982
G1 X138.7 Y109.619 E20.9812
G1 X138.7 Y125.381 E21.50545
G1 X138.66 Y126.084 E21.52887
G1 X138.541 Y126.778 E21.55229
G1 X138.343 Y127.453 E21.57569
G1 X138.071 Y128.102 E21.59909
G1 X137.726 Y128.716 E21.62252
G1 X137.315 Y129.287 E21.64592
G1 X136.884 Y129.765 E21.66732
G1 X136.767 Y129.882 E21.67283
G1 X136.242 Y130.351 E21.69624
G1 X135.667 Y130.757 E21.71965
G1 X135.049 Y131.095 E21.74308
G1 X134.398 Y131.362 E21.76648
G1 X133.72 Y131.552 E21.7899
G1 X133.025 Y131.665 E21.81332
G1 X132.383 Y131.698 E21.8347
G1 X130.62 Y131.698 E21.89334
G1 X130.2 Y131.674 E21.90733
G1 X129.581 Y131.697 E21.92793
G1 X128.879 Y131.643 E21.95135
G1 X128.188 Y131.51 E21.97476
G1 X127.516 Y131.299 E21.99818
G1 X126.572 Y130.85 E22.03295
G1 X126.372 Y130.733 E22.04066
G1 X125.786 Y130.343 E22.06407
G1 X125.247 Y129.89 E22.08749
G1 X124.764 Y129.378 E22.1109
G1 X124.341 Y128.815 E22.13432
G1 X123.985 Y128.208 E22.15773
G1 X123.7 Y127.564 E22.18115
G1 X123.49 Y126.892 E22.20457
G1 X123.357 Y126.201 E22.22797
G1 X123.303 Y125.381 E22.2553
G1 X123.303 Y123.7 E22.31121
G1 X111.697 Y123.7 E22.69723
G1 X111.697 Y125.381 E22.75314
G1 X111.657 Y126.084 E22.77656
G1 X111.538 Y126.778 E22.79998
G1 X111.34 Y127.453 E22.82338
G1 X111.068 Y128.102 E22.84678
G1 X110.723 Y128.716 E22.87021
G1 X110.312 Y129.287 E22.8936
G1 X109.838 Y129.808 E22.91703
G1 X109.308 Y130.272 E22.94046
G1 X108.639 Y130.726 E22.96735
