;FLAVOR:Marlin
;TIME:1100
;Filament used: 0.443997m
;Layer height: 0.2
;MINX:101.387
;MINY:90.205
;MINZ:0.2
;MAXX:133.327
;MAXY:116.123
;MAXZ:16
;Generated with Cura_SteamEngine 4.8.0
M140 S50
M105
M190 S50
M104 S200
M105
M109 S200
M82 ;absolute extrusion mode
; Ender 3 Custom Start G-code
G92 E0 ; Reset Extruder
G28 ; Home all axes
G1 Z2.0 F3000 ; Move Z Axis up little to prevent scratching of Heat Bed
G1 X0.1 Y20 Z0.3 F5000.0 ; Move to start position
G1 X0.1 Y200.0 Z0.3 F1500.0 E15 ; Draw the first line
G1 X0.4 Y200.0 Z0.3 F5000.0 ; Move to side a little
G1 X0.4 Y20 Z0.3 F1500.0 E30 ; Draw the second line
G92 E0 ; Reset Extruder
G1 Z2.0 F3000 ; Move Z Axis up little to prevent scratching of Heat Bed
G1 X5 Y20 Z0.3 F5000.0 ; Move over to prevent blob squish
G92 E0
G92 E0
G1 F2700 E-5
;LAYER_COUNT:80
;LAYER:0
M107
G0 F6000 X104.019 Y93.943 Z0.2
;TYPE:SKIRT
G1 F2700 E0
G1 F1200 X104.362 Y93.565 E0.01698
G1 X105.059 Y92.887 E0.04932
G1 X105.249 Y92.724 E0.05764
G1 X106.065 Y92.112 E0.09157
G1 X106.491 Y91.834 E0.10849
G1 X107.156 Y91.446 E0.1341
G1 X108.182 Y90.999 E0.17132
G1 X109.002 Y90.71 E0.20024
G1 X110.136 Y90.404 E0.2393
G1 X110.892 Y90.296 E0.2647
G1 X111.514 Y90.238 E0.28548
G1 X112.374 Y90.205 E0.3141
G1 X119.81 Y90.335 E0.56146
G1 X120.598 Y90.389 E0.58774
G1 X121.377 Y90.522 E0.61402
G1 X122.138 Y90.733 E0.64029
G1 X122.674 Y90.934 E0.65933
G1 X122.746 Y90.964 E0.66192
G1 X123.459 Y91.304 E0.68819
G1 X124.133 Y91.715 E0.71445
G1 X124.763 Y92.191 E0.74071
G1 X125.358 Y92.747 E0.7678
G1 X131.14 Y98.737 E1.0447
G1 X131.659 Y99.332 E1.07096
G1 X132.115 Y99.977 E1.09723
G1 X132.504 Y100.664 E1.12349
G1 X132.821 Y101.387 E1.14975
G1 X133.063 Y102.139 E1.17602
G1 X133.228 Y102.911 E1.20228
G1 X133.315 Y103.696 E1.22855
G1 X133.327 Y104.248 E1.24691
G1 X133.325 Y104.414 E1.25243
G1 X133.276 Y105.202 E1.27869
G1 X133.147 Y105.981 E1.30496
G1 X132.94 Y106.743 E1.33122
G1 X132.657 Y107.48 E1.35748
G1 X132.301 Y108.185 E1.38374
G1 X131.875 Y108.851 E1.41004
G1 X131.385 Y109.469 E1.43627
G1 X130.941 Y109.934 E1.45766
G1 X129.383 Y111.437 E1.52966
G1 X128.852 Y111.899 E1.55307
G1 X128.796 Y111.97 E1.55607
G1 X128.351 Y112.436 E1.57751
G1 X126.792 Y113.939 E1.64953
G1 X126.196 Y114.458 E1.67582
G1 X125.551 Y114.914 E1.70209
G1 X124.864 Y115.302 E1.72833
G1 X124.14 Y115.619 E1.75462
G1 X123.388 Y115.86 E1.78088
G1 X122.616 Y116.025 E1.80714
G1 X121.831 Y116.111 E1.83341
G1 X121.284 Y116.123 E1.8516
G1 X121.118 Y116.121 E1.85713
G1 X120.33 Y116.072 E1.88338
G1 X119.551 Y115.943 E1.90965
G1 X118.789 Y115.736 E1.93591
G1 X118.052 Y115.453 E1.96217
G1 X117.347 Y115.097 E1.98844
G1 X116.681 Y114.671 E2.01473
G1 X116.063 Y114.181 E2.04096
G1 X115.6 Y113.739 E2.06225
G1 X113.759 Y111.832 E2.15041
G1 X111.982 Y111.801 E2.20953
G1 X111.109 Y111.736 E2.23864
G1 X110.481 Y111.654 E2.25971
G1 X109.704 Y111.513 E2.28597
G1 X109.27 Y111.397 E2.30091
G1 X108.903 Y111.288 E2.31365
G1 X108.037 Y110.974 E2.34429
G1 X107.805 Y110.874 E2.35269
G1 X107.096 Y110.525 E2.37897
G1 X106.692 Y110.284 E2.39462
G1 X106.066 Y109.884 E2.41933
G1 X105.423 Y109.425 E2.4456
G1 X104.903 Y108.975 E2.46848
G1 X104.515 Y108.583 E2.48682
G1 X103.994 Y108.018 E2.51238
G1 X103.489 Y107.411 E2.53864
G1 X103.072 Y106.796 E2.56336
G1 X102.882 Y106.485 E2.57548
G1 X102.505 Y105.792 E2.60172
G1 X102.248 Y105.192 E2.62343
G1 X101.981 Y104.49 E2.64841
G1 X101.751 Y103.787 E2.67301
G1 X101.555 Y102.875 E2.70404
G1 X101.478 Y102.37 E2.72103
G1 X101.389 Y101.235 E2.75889
G1 X101.387 Y100.853 E2.7716
G1 X101.471 Y99.674 E2.81091
G1 X101.543 Y99.186 E2.82732
G1 X101.803 Y98.032 E2.86666
G1 X101.918 Y97.658 E2.87968
G1 X102.242 Y96.792 E2.91043
G1 X102.397 Y96.442 E2.92316
G1 X102.753 Y95.737 E2.94943
G1 X102.962 Y95.391 E2.96287
G1 X103.228 Y94.976 E2.97927
G1 X103.687 Y94.333 E3.00554
G1 X104.019 Y93.943 E3.02258
G0 F6000 X104.315 Y94.212
G1 F1200 X104.658 Y93.834 E3.03956
G1 X105.32 Y93.191 E3.07025
G1 X105.51 Y93.028 E3.07858
G1 X106.284 Y92.447 E3.11077
G1 X106.71 Y92.169 E3.12769
G1 X107.341 Y91.8 E3.152
G1 X108.315 Y91.376 E3.18733
G1 X109.135 Y91.087 E3.21625
G1 X110.21 Y90.797 E3.25328
G1 X110.929 Y90.694 E3.27744
G1 X111.551 Y90.636 E3.29822
G1 X112.367 Y90.605 E3.32538
G1 X119.803 Y90.735 E3.57274
G1 X120.571 Y90.789 E3.59834
G1 X121.328 Y90.921 E3.6239
G1 X122.068 Y91.132 E3.64949
G1 X122.52 Y91.303 E3.66557
G1 X122.592 Y91.333 E3.66816
G1 X123.286 Y91.666 E3.69376
G1 X123.941 Y92.068 E3.71933
G1 X124.551 Y92.536 E3.7449
G1 X125.07 Y93.025 E3.76861
G1 X130.852 Y99.015 E4.04552
G1 X131.357 Y99.595 E4.0711
G1 X131.799 Y100.225 E4.09669
G1 X132.173 Y100.897 E4.12227
G1 X132.475 Y101.604 E4.14784
G1 X132.702 Y102.339 E4.17343
G1 X132.852 Y103.093 E4.199
G1 X132.927 Y104.243 E4.23733
G1 X132.925 Y104.409 E4.24285
G1 X132.876 Y105.177 E4.26844
G1 X132.748 Y105.935 E4.29401
G1 X132.541 Y106.676 E4.3196
G1 X132.259 Y107.391 E4.34517
G1 X131.903 Y108.074 E4.37078
G1 X131.479 Y108.715 E4.39634
G1 X130.991 Y109.309 E4.42191
G1 X130.664 Y109.646 E4.43753
G1 X129.106 Y111.149 E4.50953
G1 X128.546 Y111.635 E4.5342
G1 X128.402 Y111.81 E4.54173
G1 X128.073 Y112.148 E4.55742
G1 X126.514 Y113.651 E4.62945
G1 X125.933 Y114.156 E4.65505
G1 X125.303 Y114.597 E4.68063
G1 X124.631 Y114.971 E4.70621
G1 X123.924 Y115.272 E4.73176
G1 X123.189 Y115.499 E4.75735
G1 X122.434 Y115.648 E4.78295
G1 X121.289 Y115.723 E4.82111
G1 X121.123 Y115.721 E4.82663
G1 X120.355 Y115.672 E4.85223
G1 X119.597 Y115.544 E4.8778
G1 X118.856 Y115.337 E4.90338
G1 X118.141 Y115.055 E4.92895
G1 X117.458 Y114.699 E4.95457
G1 X116.817 Y114.275 E4.98013
G1 X116.223 Y113.787 E5.0057
G1 X115.888 Y113.461 E5.02124
G1 X113.933 Y111.435 E5.11489
G1 X111.989 Y111.401 E5.17955
G1 X111.161 Y111.34 E5.20717
G1 X110.533 Y111.258 E5.22823
G1 X109.776 Y111.119 E5.25383
G1 X109.384 Y111.014 E5.26733
G1 X109.017 Y110.905 E5.28006
G1 X108.195 Y110.607 E5.30914
G1 X107.963 Y110.507 E5.31755
G1 X107.273 Y110.166 E5.34314
G1 X106.908 Y109.947 E5.3573
G1 X106.282 Y109.547 E5.38201
G1 X105.656 Y109.099 E5.40761
G1 X105.177 Y108.684 E5.42869
G1 X104.809 Y108.311 E5.44612
G1 X104.288 Y107.746 E5.47168
G1 X103.797 Y107.155 E5.49724
G1 X103.413 Y106.588 E5.52001
G1 X103.223 Y106.277 E5.53214
G1 X102.857 Y105.601 E5.5577
G1 X102.621 Y105.05 E5.57764
G1 X102.354 Y104.348 E5.60262
G1 X102.136 Y103.68 E5.62599
G1 X101.951 Y102.814 E5.65544
G1 X101.874 Y102.309 E5.67244
G1 X101.789 Y101.233 E5.70833
G1 X101.787 Y100.851 E5.72104
G1 X101.866 Y99.732 E5.75835
G1 X101.938 Y99.244 E5.77476
G1 X102.186 Y98.149 E5.8121
G1 X102.301 Y97.775 E5.82511
G1 X102.608 Y96.954 E5.85427
G1 X102.763 Y96.604 E5.867
G1 X103.299 Y95.607 E5.90465
G1 X103.565 Y95.192 E5.92104
G1 X104.013 Y94.567 E5.94662
G1 X104.315 Y94.212 E5.96212
G0 F6000 X104.611 Y94.481
G1 F1200 X104.954 Y94.103 E5.9791
G1 X105.58 Y93.494 E6.00815
G1 X105.77 Y93.331 E6.01647
G1 X106.502 Y92.782 E6.0469
G1 X106.928 Y92.504 E6.06382
G1 X107.527 Y92.154 E6.0869
G1 X108.448 Y91.753 E6.12031
G1 X109.268 Y91.464 E6.14923
G1 X110.285 Y91.19 E6.18426
G1 X110.966 Y91.092 E6.20714
G1 X111.588 Y91.034 E6.22792
G1 X112.36 Y91.005 E6.25361
G1 X119.796 Y91.135 E6.50097
G1 X120.543 Y91.188 E6.52588
G1 X121.279 Y91.32 E6.55075
G1 X121.997 Y91.531 E6.57564
G1 X122.366 Y91.672 E6.58878
G1 X122.438 Y91.702 E6.59137
G1 X123.112 Y92.027 E6.61626
G1 X123.748 Y92.421 E6.64115
G1 X124.338 Y92.881 E6.66603
G1 X124.782 Y93.302 E6.68638
G1 X130.564 Y99.292 E6.96328
G1 X131.054 Y99.858 E6.98818
G1 X131.481 Y100.472 E7.01306
G1 X131.84 Y101.128 E7.03793
G1 X132.127 Y101.819 E7.06282
G1 X132.339 Y102.537 E7.08772
G1 X132.472 Y103.273 E7.11259
G1 X132.527 Y104.238 E7.14474
G1 X132.525 Y104.404 E7.15026
G1 X132.477 Y105.151 E7.17516
G1 X132.348 Y105.888 E7.20004
G1 X132.142 Y106.607 E7.22492
G1 X131.86 Y107.3 E7.2498
G1 X131.506 Y107.959 E7.27468
G1 X131.084 Y108.576 E7.29955
G1 X130.386 Y109.358 E7.33441
G1 X128.828 Y110.861 E7.40641
G1 X128.263 Y111.351 E7.43129
G1 X128.229 Y111.375 E7.43267
G1 X127.795 Y111.86 E7.45432
G1 X126.236 Y113.363 E7.52634
G1 X125.671 Y113.853 E7.55122
G1 X125.056 Y114.28 E7.57612
G1 X124.4 Y114.638 E7.60098
G1 X123.709 Y114.925 E7.62586
G1 X122.991 Y115.136 E7.65075
G1 X122.255 Y115.269 E7.67563
G1 X121.294 Y115.323 E7.70764
G1 X121.128 Y115.321 E7.71316
G1 X120.381 Y115.273 E7.73806
G1 X119.644 Y115.144 E7.76295
G1 X118.925 Y114.938 E7.78782
G1 X118.232 Y114.656 E7.81271
G1 X117.573 Y114.302 E7.83759
G1 X116.956 Y113.88 E7.86245
G1 X116.176 Y113.184 E7.89722
G1 X114.105 Y111.038 E7.99641
G1 X111.996 Y111.001 E8.06657
G1 X111.213 Y110.943 E8.09268
G1 X110.585 Y110.861 E8.11375
G1 X109.498 Y110.63 E8.15071
G1 X109.131 Y110.521 E8.16344
G1 X108.353 Y110.239 E8.19096
G1 X108.121 Y110.139 E8.19937
G1 X107.451 Y109.807 E8.22424
G1 X107.123 Y109.61 E8.23696
G1 X106.497 Y109.21 E8.26167
G1 X105.889 Y108.774 E8.28656
G1 X105.451 Y108.392 E8.30589
G1 X105.103 Y108.04 E8.32235
G1 X104.582 Y107.475 E8.34791
G1 X104.105 Y106.899 E8.37279
G1 X103.755 Y106.379 E8.39363
G1 X103.565 Y106.068 E8.40575
G1 X103.209 Y105.41 E8.43064
G1 X102.995 Y104.907 E8.44882
G1 X102.728 Y104.205 E8.4738
G1 X102.521 Y103.573 E8.49592
G1 X102.346 Y102.754 E8.52377
G1 X102.269 Y102.249 E8.54076
G1 X102.189 Y101.231 E8.57473
G1 X102.187 Y100.849 E8.58743
G1 X102.262 Y99.79 E8.62274
G1 X102.334 Y99.302 E8.63915
G1 X102.568 Y98.267 E8.67444
G1 X102.683 Y97.893 E8.68746
G1 X102.974 Y97.116 E8.71505
G1 X103.129 Y96.766 E8.72778
G1 X103.636 Y95.823 E8.76339
G1 X103.902 Y95.408 E8.77979
G1 X104.338 Y94.8 E8.80467
G1 X104.611 Y94.481 E8.81864
G0 F6000 X104.907 Y94.75
G1 F1200 X105.25 Y94.372 E8.83562
G1 X105.841 Y93.798 E8.86302
G1 X106.031 Y93.635 E8.87134
G1 X106.721 Y93.117 E8.90004
G1 X107.147 Y92.839 E8.91696
G1 X107.713 Y92.509 E8.93875
G1 X108.581 Y92.13 E8.97025
G1 X109.401 Y91.841 E8.99917
G1 X110.36 Y91.583 E9.0322
G1 X111.003 Y91.491 E9.05381
G1 X111.625 Y91.433 E9.07458
G1 X112.353 Y91.405 E9.09881
G1 X119.789 Y91.535 E9.34617
G1 X120.514 Y91.588 E9.37035
G1 X121.228 Y91.72 E9.3945
G1 X122.212 Y92.042 E9.42894
G1 X122.284 Y92.072 E9.43153
G1 X122.939 Y92.388 E9.45572
G1 X123.554 Y92.773 E9.47985
G1 X124.123 Y93.224 E9.504
G1 X124.495 Y93.58 E9.52113
G1 X130.277 Y99.57 E9.79803
G1 X130.752 Y100.12 E9.8222
G1 X131.163 Y100.718 E9.84634
G1 X131.507 Y101.358 E9.8705
G1 X131.778 Y102.032 E9.89466
G1 X131.973 Y102.732 E9.91883
G1 X132.09 Y103.449 E9.94299
G1 X132.128 Y104.234 E9.96913
G1 X132.126 Y104.4 E9.97466
G1 X132.077 Y105.124 E9.99879
G1 X131.949 Y105.839 E10.02295
G1 X131.743 Y106.536 E10.04712
G1 X131.462 Y107.206 E10.07129
G1 X131.109 Y107.84 E10.09542
G1 X130.688 Y108.433 E10.11961
G1 X130.108 Y109.07 E10.14827
G1 X128.55 Y110.573 E10.22027
G1 X128.001 Y111.048 E10.24441
G1 X127.985 Y111.059 E10.24506
G1 X127.518 Y111.572 E10.26813
G1 X125.959 Y113.075 E10.34016
G1 X125.409 Y113.55 E10.36433
G1 X124.81 Y113.961 E10.38849
G1 X124.17 Y114.304 E10.41264
G1 X123.496 Y114.575 E10.4368
G1 X122.796 Y114.77 E10.46097
G1 X122.079 Y114.887 E10.48513
G1 X121.298 Y114.924 E10.51114
G1 X121.132 Y114.922 E10.51666
G1 X120.408 Y114.873 E10.5408
G1 X119.693 Y114.745 E10.56496
G1 X118.996 Y114.539 E10.58913
G1 X118.326 Y114.258 E10.61329
G1 X117.692 Y113.905 E10.63743
G1 X117.099 Y113.484 E10.66162
G1 X116.463 Y112.906 E10.6902
G1 X114.277 Y110.641 E10.7949
G1 X112.003 Y110.601 E10.87054
G1 X111.264 Y110.546 E10.89519
G1 X110.636 Y110.464 E10.91626
G1 X109.612 Y110.247 E10.95107
G1 X109.245 Y110.138 E10.9638
G1 X108.512 Y109.872 E10.98974
G1 X108.28 Y109.772 E10.99814
G1 X107.338 Y109.273 E11.0336
G1 X106.712 Y108.873 E11.05831
G1 X106.123 Y108.448 E11.08246
G1 X105.726 Y108.101 E11.1
G1 X105.397 Y107.769 E11.11555
G1 X104.876 Y107.204 E11.14111
G1 X104.414 Y106.644 E11.16525
G1 X104.096 Y106.171 E11.18421
G1 X103.906 Y105.86 E11.19633
G1 X103.562 Y105.22 E11.2205
G1 X103.369 Y104.765 E11.23694
G1 X103.102 Y104.063 E11.26192
G1 X102.907 Y103.465 E11.28284
G1 X102.741 Y102.694 E11.30907
G1 X102.664 Y102.189 E11.32606
G1 X102.589 Y101.229 E11.35809
G1 X102.587 Y100.847 E11.37079
G1 X102.658 Y99.849 E11.40407
G1 X102.73 Y99.361 E11.42048
G1 X102.95 Y98.384 E11.45379
G1 X103.065 Y98.01 E11.4668
G1 X103.339 Y97.277 E11.49283
G1 X103.494 Y96.927 E11.50556
G1 X103.972 Y96.038 E11.53913
G1 X104.238 Y95.623 E11.55553
G1 X104.663 Y95.034 E11.57968
G1 X104.907 Y94.75 E11.59214
G0 F6000 X105.204 Y95.019
G1 F1200 X105.547 Y94.641 E11.60911
G1 X106.101 Y94.101 E11.63484
G1 X106.291 Y93.938 E11.64317
G1 X106.94 Y93.452 E11.67014
G1 X107.366 Y93.174 E11.68706
G1 X107.898 Y92.863 E11.70755
G1 X108.714 Y92.508 E11.73715
G1 X109.534 Y92.219 E11.76607
G1 X110.435 Y91.976 E11.79711
G1 X111.04 Y91.889 E11.81744
G1 X111.662 Y91.831 E11.83821
G1 X112.346 Y91.805 E11.86098
G1 X119.782 Y91.935 E12.10834
G1 X120.484 Y91.987 E12.13175
G1 X121.176 Y92.119 E12.15518
G1 X122.059 Y92.411 E12.18612
G1 X122.131 Y92.441 E12.18871
G1 X122.764 Y92.748 E12.21211
G1 X123.359 Y93.125 E12.23554
G1 X123.906 Y93.567 E12.25893
G1 X124.207 Y93.858 E12.27285
G1 X129.989 Y99.848 E12.54976
G1 X130.448 Y100.382 E12.57318
G1 X130.844 Y100.964 E12.59659
G1 X131.172 Y101.587 E12.62001
G1 X131.426 Y102.243 E12.6434
G1 X131.605 Y102.924 E12.66682
G1 X131.705 Y103.621 E12.69024
G1 X131.728 Y104.229 E12.71048
G1 X131.726 Y104.395 E12.716
G1 X131.677 Y105.097 E12.73941
G1 X131.549 Y105.789 E12.76281
G1 X131.344 Y106.463 E12.78624
G1 X131.064 Y107.108 E12.80963
G1 X130.712 Y107.718 E12.83306
G1 X130.293 Y108.284 E12.85648
G1 X129.831 Y108.782 E12.87907
G1 X128.273 Y110.285 E12.95107
G1 X127.73 Y110.75 E12.97485
G1 X127.704 Y110.785 E12.9763
G1 X127.24 Y111.284 E12.99896
G1 X125.681 Y112.787 E13.07099
G1 X125.147 Y113.247 E13.09443
G1 X124.565 Y113.642 E13.11783
G1 X123.942 Y113.969 E13.14123
G1 X123.285 Y114.223 E13.16466
G1 X122.604 Y114.402 E13.18808
G1 X121.907 Y114.501 E13.21149
G1 X121.303 Y114.524 E13.23159
G1 X121.137 Y114.522 E13.23712
G1 X120.435 Y114.473 E13.26052
G1 X119.743 Y114.345 E13.28393
G1 X119.069 Y114.14 E13.30736
G1 X118.424 Y113.86 E13.33075
G1 X117.814 Y113.508 E13.35417
G1 X117.248 Y113.089 E13.37759
G1 X116.751 Y112.628 E13.40014
G1 X114.45 Y110.244 E13.51034
G1 X112.01 Y110.201 E13.59151
G1 X111.316 Y110.15 E13.61465
G1 X110.688 Y110.068 E13.63572
G1 X109.726 Y109.863 E13.66843
G1 X109.359 Y109.754 E13.68117
G1 X108.67 Y109.505 E13.70553
G1 X108.438 Y109.405 E13.71394
G1 X107.554 Y108.936 E13.74722
G1 X106.928 Y108.536 E13.77193
G1 X106.357 Y108.123 E13.79537
G1 X106 Y107.81 E13.81116
G1 X105.691 Y107.498 E13.82576
G1 X105.17 Y106.933 E13.85132
G1 X104.723 Y106.389 E13.87474
G1 X104.437 Y105.962 E13.89184
G1 X104.247 Y105.651 E13.90396
G1 X103.915 Y105.031 E13.92735
G1 X103.743 Y104.623 E13.94208
G1 X103.476 Y103.921 E13.96706
G1 X103.292 Y103.358 E13.98676
G1 X103.137 Y102.634 E14.01138
G1 X103.06 Y102.129 E14.02837
G1 X102.989 Y101.226 E14.0585
G1 X102.987 Y100.844 E14.0712
G1 X103.053 Y99.907 E14.10245
G1 X103.125 Y99.419 E14.11885
G1 X103.333 Y98.502 E14.15013
G1 X103.448 Y98.128 E14.16314
G1 X103.705 Y97.439 E14.1876
G1 X103.86 Y97.089 E14.20033
G1 X104.309 Y96.254 E14.23186
G1 X104.575 Y95.839 E14.24826
G1 X105.204 Y95.019 E14.28263
G0 F6000 X105.5 Y95.287
G1 F1200 X105.843 Y94.909 E14.29961
G1 X106.362 Y94.405 E14.32367
G1 X106.552 Y94.242 E14.332
G1 X107.158 Y93.787 E14.3572
G1 X107.584 Y93.509 E14.37412
G1 X108.084 Y93.217 E14.39338
G1 X108.847 Y92.885 E14.42106
G1 X109.667 Y92.596 E14.44997
G1 X110.51 Y92.368 E14.47902
G1 X111.078 Y92.287 E14.4981
G1 X111.7 Y92.229 E14.51888
G1 X112.339 Y92.205 E14.54015
G1 X119.775 Y92.335 E14.78751
G1 X120.454 Y92.387 E14.81016
G1 X121.122 Y92.518 E14.8328
G1 X121.905 Y92.78 E14.86026
G1 X121.977 Y92.81 E14.86285
G1 X122.589 Y93.108 E14.88549
G1 X123.162 Y93.476 E14.90814
G1 X123.919 Y94.136 E14.94155
G1 X129.701 Y100.126 E15.21845
G1 X130.144 Y100.643 E15.2411
G1 X130.524 Y101.208 E15.26374
G1 X130.835 Y101.814 E15.2864
G1 X131.073 Y102.452 E15.30905
G1 X131.234 Y103.113 E15.33167
G1 X131.317 Y103.789 E15.35433
G1 X131.328 Y104.224 E15.3688
G1 X131.326 Y104.39 E15.37432
G1 X131.277 Y105.069 E15.39696
