;FLAVOR:Marlin
;TIME:1954
;Filament used: 1.17094m
;Layer height: 0.2
;MINX:89.98
;MINY:97.2
;MINZ:0.2
;MAXX:145.02
;MAXY:137.8
;MAXZ:12.4
;Generated with Cura_SteamEngine 4.8.0
M140 S50
M105
M190 S50
M104 S200
M105
M109 S200
M82 ;absolute extrusion mode
; Ender 3 Custom Start G-code
G92 E0 ; Reset Extruder
G28 ; Home all axes
G1 Z2.0 F3000 ; Move Z Axis up little to prevent scratching of Heat Bed
G1 X0.1 Y20 Z0.3 F5000.0 ; Move to start position
G1 X0.1 Y200.0 Z0.3 F1500.0 E15 ; Draw the first line
G1 X0.4 Y200.0 Z0.3 F5000.0 ; Move to side a little
G1 X0.4 Y20 Z0.3 F1500.0 E30 ; Draw the second line
G92 E0 ; Reset Extruder
G1 Z2.0 F3000 ; Move Z Axis up little to prevent scratching of Heat Bed
G1 X5 Y20 Z0.3 F5000.0 ; Move over to prevent blob squish
G92 E0
G92 E0
G1 F2700 E-5
;LAYER_COUNT:62
;LAYER:0
M107
G0 F6000 X92.382 Y99.485 Z0.2
;TYPE:SKIRT
G1 F2700 E0
G1 F1200 X92.968 Y98.955 E0.02628
G1 X93.604 Y98.488 E0.05252
G1 X94.284 Y98.087 E0.07878
G1 X95.002 Y97.757 E0.10506
G1 X95.749 Y97.502 E0.13132
G1 X96.518 Y97.323 E0.15758
G1 X97.302 Y97.223 E0.18386
G1 X97.897 Y97.2 E0.20367
G1 X137.103 Y97.2 E1.50766
G1 X137.892 Y97.24 E1.53394
G1 X138.672 Y97.359 E1.56018
G1 X139.437 Y97.557 E1.58647
G1 X140.177 Y97.831 E1.61271
G1 X140.886 Y98.179 E1.63898
G1 X141.557 Y98.597 E1.66527
G1 X142.181 Y99.08 E1.69152
G1 X142.618 Y99.485 E1.71134
G1 X142.735 Y99.602 E1.71684
G1 X143.265 Y100.188 E1.74312
G1 X143.732 Y100.824 E1.76936
G1 X144.133 Y101.504 E1.79562
G1 X144.463 Y102.222 E1.8219
G1 X144.718 Y102.969 E1.84815
G1 X144.897 Y103.738 E1.87442
G1 X144.997 Y104.522 E1.9007
G1 X145.02 Y105.117 E1.92051
G1 X145.02 Y129.883 E2.74423
G1 X144.98 Y130.672 E2.7705
G1 X144.861 Y131.452 E2.79675
G1 X144.663 Y132.217 E2.82303
G1 X144.389 Y132.957 E2.84927
G1 X144.041 Y133.666 E2.87554
G1 X143.623 Y134.337 E2.90184
G1 X143.14 Y134.961 E2.92808
G1 X142.735 Y135.398 E2.9479
G1 X142.618 Y135.515 E2.9534
G1 X142.032 Y136.045 E2.97968
G1 X141.396 Y136.512 E3.00593
G1 X140.716 Y136.913 E3.03218
G1 X139.998 Y137.243 E3.05847
G1 X139.251 Y137.498 E3.08472
G1 X138.482 Y137.677 E3.11098
G1 X137.698 Y137.777 E3.13727
G1 X137.103 Y137.8 E3.15707
G1 X97.897 Y137.8 E4.46107
G1 X97.108 Y137.76 E4.48734
G1 X96.328 Y137.641 E4.51359
G1 X95.563 Y137.443 E4.53987
G1 X94.823 Y137.169 E4.56611
G1 X94.114 Y136.821 E4.59238
G1 X93.443 Y136.403 E4.61868
G1 X92.819 Y135.92 E4.64492
G1 X92.382 Y135.515 E4.66474
G1 X92.265 Y135.398 E4.67024
G1 X91.735 Y134.812 E4.69652
G1 X91.268 Y134.176 E4.72277
G1 X90.867 Y133.496 E4.74902
G1 X90.537 Y132.778 E4.7753
G1 X90.282 Y132.031 E4.80156
G1 X90.103 Y131.262 E4.82782
G1 X90.003 Y130.478 E4.85411
G1 X89.98 Y129.883 E4.87391
G1 X89.98 Y105.117 E5.69763
G1 X90.02 Y104.328 E5.72391
G1 X90.139 Y103.548 E5.75015
G1 X90.337 Y102.783 E5.77643
G1 X90.611 Y102.043 E5.80268
G1 X90.959 Y101.334 E5.82895
G1 X91.377 Y100.663 E5.85524
G1 X91.86 Y100.039 E5.88149
G1 X92.265 Y99.602 E5.9013
G1 X92.382 Y99.485 E5.90681
G0 F6000 X92.664 Y99.767
G1 F1200 X93.236 Y99.253 E5.93238
G1 X93.858 Y98.8 E5.95798
G1 X94.523 Y98.414 E5.98355
G1 X95.225 Y98.099 E6.00914
G1 X95.956 Y97.859 E6.03473
G1 X96.707 Y97.696 E6.06029
G1 X97.472 Y97.612 E6.08589
G1 X97.897 Y97.6 E6.10003
G1 X137.103 Y97.6 E7.40403
G1 X137.871 Y97.64 E7.4296
G1 X138.631 Y97.759 E7.45519
G1 X139.374 Y97.957 E7.48077
G1 X140.093 Y98.231 E7.50636
G1 X140.779 Y98.578 E7.53193
G1 X141.426 Y98.994 E7.55751
G1 X142.026 Y99.475 E7.58309
G1 X142.336 Y99.767 E7.59725
G1 X142.453 Y99.884 E7.60275
G1 X142.967 Y100.456 E7.62833
G1 X143.42 Y101.078 E7.65393
G1 X143.806 Y101.743 E7.6795
G1 X144.121 Y102.445 E7.70509
G1 X144.361 Y103.176 E7.73068
G1 X144.524 Y103.927 E7.75624
G1 X144.608 Y104.692 E7.78184
G1 X144.62 Y105.117 E7.79598
G1 X144.62 Y129.883 E8.6197
G1 X144.58 Y130.651 E8.64528
G1 X144.461 Y131.411 E8.67086
G1 X144.263 Y132.154 E8.69644
G1 X143.989 Y132.873 E8.72203
G1 X143.642 Y133.559 E8.7476
G1 X143.226 Y134.206 E8.77318
G1 X142.745 Y134.806 E8.79876
G1 X142.453 Y135.116 E8.81292
G1 X142.336 Y135.233 E8.81843
G1 X141.764 Y135.747 E8.844
G1 X141.142 Y136.2 E8.8696
G1 X140.477 Y136.586 E8.89517
G1 X139.775 Y136.901 E8.92076
G1 X139.044 Y137.141 E8.94635
G1 X138.293 Y137.304 E8.97191
G1 X137.528 Y137.388 E8.99751
G1 X137.103 Y137.4 E9.01165
G1 X97.897 Y137.4 E10.31565
G1 X97.129 Y137.36 E10.34123
G1 X96.369 Y137.241 E10.36681
G1 X95.626 Y137.043 E10.39239
G1 X94.907 Y136.769 E10.41798
G1 X94.221 Y136.422 E10.44355
G1 X93.574 Y136.006 E10.46913
G1 X92.974 Y135.525 E10.49471
G1 X92.664 Y135.233 E10.50887
G1 X92.547 Y135.116 E10.51438
G1 X92.033 Y134.544 E10.53995
G1 X91.58 Y133.922 E10.56555
G1 X91.194 Y133.257 E10.59112
G1 X90.879 Y132.555 E10.61671
G1 X90.639 Y131.824 E10.6423
G1 X90.476 Y131.073 E10.66786
G1 X90.392 Y130.308 E10.69346
G1 X90.38 Y129.883 E10.7076
G1 X90.38 Y105.117 E11.53132
G1 X90.42 Y104.349 E11.5569
G1 X90.539 Y103.589 E11.58248
G1 X90.737 Y102.846 E11.60806
G1 X91.011 Y102.127 E11.63365
G1 X91.358 Y101.441 E11.65922
G1 X91.774 Y100.794 E11.6848
G1 X92.255 Y100.194 E11.71038
G1 X92.547 Y99.884 E11.72455
G1 X92.664 Y99.767 E11.73005
G0 F6000 X92.947 Y100.05
G1 F1200 X93.504 Y99.55 E11.75494
G1 X94.11 Y99.113 E11.77979
G1 X94.76 Y98.742 E11.80469
G1 X95.446 Y98.443 E11.82958
G1 X96.16 Y98.219 E11.85447
G1 X96.893 Y98.072 E11.87933
G1 X97.897 Y98 E11.91281
G1 X137.103 Y98 E13.21681
G1 X137.85 Y98.04 E13.24169
G1 X138.588 Y98.159 E13.26655
G1 X139.31 Y98.357 E13.29145
G1 X140.006 Y98.63 E13.31632
G1 X140.669 Y98.977 E13.34121
G1 X141.292 Y99.392 E13.3661
G1 X142.053 Y100.05 E13.39956
G1 X142.17 Y100.167 E13.40507
G1 X142.67 Y100.724 E13.42996
G1 X143.107 Y101.33 E13.45481
G1 X143.478 Y101.98 E13.4797
G1 X143.777 Y102.666 E13.50459
G1 X144.001 Y103.38 E13.52948
G1 X144.148 Y104.113 E13.55435
G1 X144.22 Y105.117 E13.58783
G1 X144.22 Y129.883 E14.41155
G1 X144.18 Y130.63 E14.43643
G1 X144.061 Y131.368 E14.46129
G1 X143.863 Y132.09 E14.48619
G1 X143.59 Y132.786 E14.51106
G1 X143.243 Y133.449 E14.53595
G1 X142.828 Y134.072 E14.56084
G1 X142.17 Y134.833 E14.59431
G1 X142.053 Y134.95 E14.59981
G1 X141.496 Y135.45 E14.6247
G1 X140.89 Y135.887 E14.64955
G1 X140.24 Y136.258 E14.67445
G1 X139.554 Y136.557 E14.69934
G1 X138.84 Y136.781 E14.72422
G1 X138.107 Y136.928 E14.74909
G1 X137.103 Y137 E14.78257
G1 X97.897 Y137 E16.08657
G1 X97.15 Y136.96 E16.11145
G1 X96.412 Y136.841 E16.13631
G1 X95.69 Y136.643 E16.16121
G1 X94.994 Y136.37 E16.18608
G1 X94.331 Y136.023 E16.21097
G1 X93.708 Y135.608 E16.23586
G1 X92.947 Y134.95 E16.26932
G1 X92.83 Y134.833 E16.27483
G1 X92.33 Y134.276 E16.29972
G1 X91.893 Y133.67 E16.32457
G1 X91.522 Y133.02 E16.34946
G1 X91.223 Y132.334 E16.37435
G1 X90.999 Y131.62 E16.39924
G1 X90.852 Y130.887 E16.42411
G1 X90.78 Y129.883 E16.45759
G1 X90.78 Y105.117 E17.28131
G1 X90.82 Y104.37 E17.30619
G1 X90.939 Y103.632 E17.33105
G1 X91.137 Y102.91 E17.35595
G1 X91.41 Y102.214 E17.38082
G1 X91.757 Y101.551 E17.40571
G1 X92.172 Y100.928 E17.4306
G1 X92.83 Y100.167 E17.46406
G1 X92.947 Y100.05 E17.46957
G0 F6000 X93.23 Y100.333
G1 F1200 X93.771 Y99.849 E17.49371
G1 X94.362 Y99.426 E17.51788
G1 X94.996 Y99.072 E17.54204
G1 X95.665 Y98.789 E17.5662
G1 X96.361 Y98.581 E17.59036
G1 X97.076 Y98.451 E17.61453
G1 X97.897 Y98.4 E17.64189
G1 X137.103 Y98.4 E18.94588
G1 X137.828 Y98.44 E18.97003
G1 X138.545 Y98.559 E18.99421
G1 X139.244 Y98.757 E19.01837
G1 X139.917 Y99.03 E19.04253
G1 X140.556 Y99.375 E19.06668
G1 X141.153 Y99.789 E19.09084
G1 X141.77 Y100.333 E19.1182
G1 X141.887 Y100.45 E19.12371
G1 X142.371 Y100.991 E19.14785
G1 X142.794 Y101.582 E19.17202
G1 X143.148 Y102.216 E19.19617
G1 X143.431 Y102.885 E19.22033
G1 X143.639 Y103.581 E19.24449
G1 X143.769 Y104.296 E19.26866
G1 X143.82 Y105.117 E19.29602
G1 X143.82 Y129.883 E20.11974
G1 X143.78 Y130.608 E20.14389
G1 X143.661 Y131.325 E20.16807
G1 X143.463 Y132.024 E20.19223
G1 X143.19 Y132.697 E20.21639
G1 X142.845 Y133.336 E20.24054
G1 X142.431 Y133.933 E20.2647
G1 X141.887 Y134.55 E20.29206
G1 X141.77 Y134.667 E20.29757
G1 X141.229 Y135.151 E20.32171
G1 X140.638 Y135.574 E20.34588
G1 X140.004 Y135.928 E20.37003
G1 X139.335 Y136.211 E20.39419
G1 X138.639 Y136.419 E20.41836
G1 X137.924 Y136.549 E20.44253
G1 X137.103 Y136.6 E20.46989
G1 X97.897 Y136.6 E21.77388
G1 X97.172 Y136.56 E21.79803
G1 X96.455 Y136.441 E21.82221
G1 X95.756 Y136.243 E21.84637
G1 X95.083 Y135.97 E21.87053
G1 X94.444 Y135.625 E21.89468
G1 X93.847 Y135.211 E21.91884
G1 X93.23 Y134.667 E21.9462
G1 X93.113 Y134.55 E21.9517
G1 X92.629 Y134.009 E21.97585
G1 X92.206 Y133.418 E22.00002
G1 X91.852 Y132.784 E22.02417
G1 X91.569 Y132.115 E22.04833
G1 X91.361 Y131.419 E22.07249
G1 X91.231 Y130.704 E22.09666
G1 X91.18 Y129.883 E22.12402
G1 X91.18 Y105.117 E22.94774
G1 X91.22 Y104.392 E22.97189
G1 X91.339 Y103.675 E22.99607
G1 X91.537 Y102.976 E23.02023
G1 X91.81 Y102.303 E23.04439
G1 X92.155 Y101.664 E23.06854
G1 X92.569 Y101.067 E23.0927
G1 X93.113 Y100.45 E23.12006
G1 X93.23 Y100.333 E23.12557
G0 F6000 X93.513 Y100.616
G1 F1200 X94.038 Y100.147 E23.14898
G1 X94.613 Y99.741 E23.17239
G1 X95.231 Y99.403 E23.19582
G1 X95.882 Y99.136 E23.21922
G1 X96.56 Y98.946 E23.24264
G1 X97.255 Y98.833 E23.26606
G1 X97.897 Y98.8 E23.28744
G1 X137.103 Y98.8 E24.59144
G1 X137.806 Y98.84 E24.61486
G1 X138.5 Y98.959 E24.63828
G1 X139.175 Y99.157 E24.66167
G1 X139.824 Y99.429 E24.68508
G1 X140.438 Y99.774 E24.7085
G1 X141.009 Y100.185 E24.7319
G1 X141.487 Y100.616 E24.75331
G1 X141.604 Y100.733 E24.75881
G1 X142.073 Y101.258 E24.78223
G1 X142.479 Y101.833 E24.80564
G1 X142.817 Y102.451 E24.82907
G1 X143.084 Y103.102 E24.85247
G1 X143.274 Y103.78 E24.87589
G1 X143.387 Y104.475 E24.89931
G1 X143.42 Y105.117 E24.92069
G1 X143.42 Y129.883 E25.74441
G1 X143.38 Y130.586 E25.76783
G1 X143.261 Y131.28 E25.79125
G1 X143.063 Y131.955 E25.81465
G1 X142.791 Y132.604 E25.83805
G1 X142.446 Y133.218 E25.86148
G1 X142.035 Y133.789 E25.88488
G1 X141.604 Y134.267 E25.90628
G1 X141.487 Y134.384 E25.91179
G1 X140.962 Y134.853 E25.9352
G1 X140.387 Y135.259 E25.95861
G1 X139.769 Y135.597 E25.98204
G1 X139.118 Y135.864 E26.00544
G1 X138.44 Y136.054 E26.02886
G1 X137.745 Y136.167 E26.05228
G1 X137.103 Y136.2 E26.07366
G1 X97.897 Y136.2 E27.37766
G1 X97.194 Y136.16 E27.40108
G1 X96.5 Y136.041 E27.4245
G1 X95.825 Y135.843 E27.44789
G1 X95.176 Y135.571 E27.4713
G1 X94.562 Y135.226 E27.49472
G1 X93.991 Y134.815 E27.51812
G1 X93.513 Y134.384 E27.53953
G1 X93.396 Y134.267 E27.54503
G1 X92.927 Y133.742 E27.56845
G1 X92.521 Y133.167 E27.59186
G1 X92.183 Y132.549 E27.61529
G1 X91.916 Y131.898 E27.63869
G1 X91.726 Y131.22 E27.66211
G1 X91.613 Y130.525 E27.68553
G1 X91.58 Y129.883 E27.70691
G1 X91.58 Y105.117 E28.53063
G1 X91.62 Y104.414 E28.55405
G1 X91.739 Y103.72 E28.57747
G1 X91.937 Y103.045 E28.60087
G1 X92.209 Y102.396 E28.62427
G1 X92.554 Y101.782 E28.6477
G1 X92.965 Y101.211 E28.6711
G1 X93.396 Y100.733 E28.6925
G1 X93.513 Y100.616 E28.69801
G0 F6000 X93.796 Y100.899
G1 F1200 X94.305 Y100.446 E28.72067
G1 X94.863 Y100.057 E28.74329
G1 X95.463 Y99.735 E28.76594
G1 X96.097 Y99.486 E28.7886
G1 X96.756 Y99.313 E28.81126
G1 X97.43 Y99.219 E28.83389
G1 X97.897 Y99.2 E28.84944
G1 X137.103 Y99.2 E30.15343
G1 X137.783 Y99.24 E30.17609
G1 X138.453 Y99.359 E30.19872
G1 X139.105 Y99.556 E30.22138
G1 X139.729 Y99.828 E30.24402
G1 X140.317 Y100.172 E30.26667
G1 X140.861 Y100.582 E30.28933
G1 X141.204 Y100.899 E30.30487
G1 X141.321 Y101.016 E30.31037
G1 X141.774 Y101.525 E30.33303
G1 X142.163 Y102.083 E30.35566
G1 X142.485 Y102.683 E30.3783
G1 X142.734 Y103.317 E30.40096
G1 X142.907 Y103.976 E30.42362
G1 X143.001 Y104.65 E30.44625
G1 X143.02 Y105.117 E30.4618
G1 X143.02 Y129.883 E31.28552
G1 X142.98 Y130.563 E31.30818
G1 X142.861 Y131.233 E31.33081
G1 X142.664 Y131.885 E31.35346
G1 X142.392 Y132.509 E31.3761
G1 X142.048 Y133.097 E31.39876
G1 X141.638 Y133.641 E31.42142
G1 X141.321 Y133.984 E31.43695
G1 X141.204 Y134.101 E31.44246
G1 X140.695 Y134.554 E31.46512
G1 X140.137 Y134.943 E31.48774
G1 X139.537 Y135.265 E31.51039
G1 X138.903 Y135.514 E31.53305
G1 X138.244 Y135.687 E31.55571
G1 X137.57 Y135.781 E31.57834
G1 X137.103 Y135.8 E31.59389
G1 X97.897 Y135.8 E32.89788
G1 X97.217 Y135.76 E32.92054
G1 X96.547 Y135.641 E32.94317
G1 X95.895 Y135.444 E32.96583
G1 X95.271 Y135.172 E32.98847
G1 X94.683 Y134.828 E33.01113
G1 X94.139 Y134.418 E33.03378
G1 X93.796 Y134.101 E33.04932
G1 X93.679 Y133.984 E33.05482
G1 X93.226 Y133.475 E33.07748
G1 X92.837 Y132.917 E33.10011
G1 X92.515 Y132.317 E33.12275
G1 X92.266 Y131.683 E33.14541
G1 X92.093 Y131.024 E33.16807
G1 X91.999 Y130.35 E33.19071
G1 X91.98 Y129.883 E33.20625
G1 X91.98 Y105.117 E34.02997
G1 X92.02 Y104.437 E34.05263
G1 X92.139 Y103.767 E34.07526
G1 X92.336 Y103.115 E34.09791
G1 X92.608 Y102.491 E34.12055
G1 X92.952 Y101.903 E34.14321
G1 X93.362 Y101.359 E34.16587
G1 X93.679 Y101.016 E34.1814
G1 X93.796 Y100.899 E34.18691
G0 F6000 X94.079 Y101.182
G1 F1200 X94.571 Y100.746 E34.20877
G1 X95.112 Y100.374 E34.23061
G1 X95.694 Y100.07 E34.25245
G1 X96.309 Y99.839 E34.2743
G1 X96.948 Y99.684 E34.29617
G1 X97.897 Y99.6 E34.32785
G1 X137.103 Y99.6 E35.63185
G1 X137.759 Y99.64 E35.65371
G1 X138.405 Y99.759 E35.67556
G1 X139.032 Y99.956 E35.69742
G1 X139.63 Y100.228 E35.71927
G1 X140.191 Y100.57 E35.74112
G1 X140.921 Y101.182 E35.7728
G1 X141.038 Y101.299 E35.77831
G1 X141.474 Y101.791 E35.80017
G1 X141.846 Y102.332 E35.82201
G1 X142.15 Y102.914 E35.84385
G1 X142.381 Y103.529 E35.8657
G1 X142.536 Y104.168 E35.88757
G1 X142.62 Y105.117 E35.91926
G1 X142.62 Y129.883 E36.74298
G1 X142.58 Y130.539 E36.76484
G1 X142.461 Y131.185 E36.78668
G1 X142.264 Y131.812 E36.80854
G1 X141.992 Y132.41 E36.83039
G1 X141.65 Y132.971 E36.85225
G1 X141.038 Y133.701 E36.88393
G1 X140.921 Y133.818 E36.88943
G1 X140.429 Y134.254 E36.9113
G1 X139.888 Y134.626 E36.93313
G1 X139.306 Y134.93 E36.95497
G1 X138.691 Y135.161 E36.97682
G1 X138.052 Y135.316 E36.99869
G1 X137.103 Y135.4 E37.03038
G1 X97.897 Y135.4 E38.33438
G1 X97.241 Y135.36 E38.35624
G1 X96.595 Y135.241 E38.37808
G1 X95.968 Y135.044 E38.39994
G1 X95.37 Y134.772 E38.42179
G1 X94.809 Y134.43 E38.44365
G1 X94.079 Y133.818 E38.47533
G1 X93.962 Y133.701 E38.48083
G1 X93.526 Y133.209 E38.5027
G1 X93.154 Y132.668 E38.52454
G1 X92.85 Y132.086 E38.54637
G1 X92.619 Y131.471 E38.56822
G1 X92.464 Y130.832 E38.59009
G1 X92.38 Y129.883 E38.62178
G1 X92.38 Y105.117 E39.4455
G1 X92.42 Y104.461 E39.46736
G1 X92.539 Y103.815 E39.48921
G1 X92.736 Y103.188 E39.51107
G1 X93.008 Y102.59 E39.53292
G1 X93.35 Y102.029 E39.55477
G1 X93.962 Y101.299 E39.58645
G1 X94.079 Y101.182 E39.59196
G0 F6000 X94.361 Y101.464
G1 F1200 X94.836 Y101.047 E39.61298
G1 X95.359 Y100.692 E39.634
G1 X95.923 Y100.406 E39.65504
G1 X96.518 Y100.194 E39.67605
G1 X97.136 Y100.058 E39.69709
G1 X97.897 Y100 E39.72248
G1 X137.103 Y100 E41.02647
G1 X137.734 Y100.04 E41.0475
G1 X138.355 Y100.159 E41.06853
G1 X138.955 Y100.356 E41.08954
G1 X139.527 Y100.627 E41.11059
G1 X140.059 Y100.967 E41.13159
G1 X140.639 Y101.464 E41.15699
G1 X140.756 Y101.581 E41.1625
G1 X141.173 Y102.056 E41.18352
G1 X141.528 Y102.579 E41.20454
G1 X141.814 Y103.143 E41.22558
G1 X142.026 Y103.738 E41.24658
G1 X142.162 Y104.356 E41.26763
G1 X142.22 Y105.117 E41.29302
G1 X142.22 Y129.883 E42.11674
G1 X142.18 Y130.514 E42.13776
G1 X142.061 Y131.135 E42.1588
G1 X141.864 Y131.735 E42.1798
G1 X141.593 Y132.307 E42.20085
G1 X141.253 Y132.839 E42.22185
G1 X140.756 Y133.419 E42.24726
G1 X140.639 Y133.536 E42.25276
G1 X140.164 Y133.953 E42.27378
G1 X139.641 Y134.308 E42.29481
G1 X139.077 Y134.594 E42.31584
G1 X138.482 Y134.806 E42.33685
G1 X137.864 Y134.942 E42.35789
G1 X137.103 Y135 E42.38328
G1 X97.897 Y135 E43.68727
G1 X97.266 Y134.96 E43.7083
G1 X96.645 Y134.841 E43.72933
G1 X96.045 Y134.644 E43.75034
G1 X95.473 Y134.373 E43.77139
G1 X94.941 Y134.033 E43.79239
G1 X94.361 Y133.536 E43.81779
G1 X94.244 Y133.419 E43.8233
G1 X93.827 Y132.944 E43.84432
G1 X93.472 Y132.421 E43.86534
G1 X93.186 Y131.857 E43.88638
G1 X92.974 Y131.262 E43.90738
G1 X92.838 Y130.644 E43.92843
G1 X92.78 Y129.883 E43.95382
